;FLAVOR:RepRap
;TIME:1355
M104 S200.000000
M109 S200.000000
; -- START GCODE --
G21                     ;set units to millimetres
G90                     ;set to absolute positioning
M106 S0                 ;set fan speed to zero (turned off)
G28 X0 Y0               ;move to the X/Y origin (Home)
G28 Z0                  ;move to the Z origin (Home)
G1 Z15.0 F1200          ;move Z to position 15.0 mm
G92 E0                  ;zero the extruded length
G1 E20 F200             ;extrude 20mm of feed stock
G92 E0                  ;zero the extruded length again
G1 F7200                ;set feedrate to 120 mm/sec
; -- end of START GCODE --
;Generated with Cura_SteamEngine 2.1.2
;LAYER_COUNT:79
;LAYER:0
M107
G1 F1800.000000 E-6.50000
G1 Z20.075
G0 F7200.000 X96.180 Y93.688 Z0.275
;TYPE:SKIRT
G1 Z0.200
G1 F1800.000 E0.00000
G1 F1200.00000 X96.591 Y93.291 E0.01901
G1 X96.998 Y92.925 E0.03721
G1 X97.540 Y92.474 E0.06066
G1 X97.884 Y92.207 E0.07515
G1 X98.399 Y91.837 E0.09624
G1 X98.844 Y91.540 E0.11403
G1 X99.422 Y91.184 E0.13661
G1 X99.780 Y90.982 E0.15028
G1 X100.403 Y90.657 E0.17365
G1 X100.850 Y90.444 E0.19012
G1 X101.413 Y90.200 E0.21053
G1 X101.955 Y89.988 E0.22989
G1 X102.479 Y89.804 E0.24836
G1 X103.048 Y89.628 E0.26817
G1 X103.521 Y89.499 E0.28448
G1 X104.198 Y89.342 E0.30759
G1 X104.759 Y89.232 E0.32660
G1 X105.245 Y89.155 E0.34297
G1 X105.823 Y89.085 E0.36234
G1 X106.479 Y89.029 E0.38423
G1 X106.922 Y89.007 E0.39899
G1 X107.630 Y88.997 E0.42254
G1 X108.091 Y89.007 E0.43787
G1 X108.789 Y89.049 E0.46113
G1 X109.283 Y89.095 E0.47763
G1 X109.845 Y89.169 E0.49649
G1 X110.397 Y89.261 E0.51510
G1 X110.988 Y89.382 E0.53516
G1 X111.620 Y89.535 E0.55679
G1 X112.068 Y89.661 E0.57227
G1 X112.620 Y89.838 E0.59155
G1 X113.208 Y90.050 E0.61234
G1 X113.745 Y90.266 E0.63159
G1 X114.206 Y90.470 E0.64836
G1 X114.823 Y90.771 E0.67119
G1 X115.263 Y91.006 E0.68778
G1 X115.696 Y91.256 E0.70441
G1 X116.355 Y91.670 E0.73030
G1 X116.671 Y91.884 E0.74299
G1 X117.236 Y92.298 E0.76629
G1 X117.613 Y92.596 E0.78227
G1 X118.043 Y92.961 E0.80103
G1 X118.571 Y93.444 E0.82483
G1 X118.903 Y93.772 E0.84035
G1 X119.342 Y94.236 E0.86160
G1 X119.643 Y94.576 E0.87670
G1 X120.014 Y95.027 E0.89612
G1 X120.504 Y95.672 E0.92307
G1 X120.683 Y95.926 E0.93340
G1 X121.048 Y96.485 E0.95561
G1 X121.389 Y97.050 E0.97755
G1 X121.584 Y97.400 E0.99088
G1 X121.891 Y98.001 E1.01333
G1 X122.144 Y98.545 E1.03328
G1 X122.340 Y99.009 E1.05003
G1 X122.560 Y99.585 E1.07054
G1 X122.739 Y100.113 E1.08909
G1 X122.912 Y100.691 E1.10915
G1 X123.051 Y101.223 E1.12744
G1 X123.189 Y101.838 E1.14840
G1 X123.265 Y102.248 E1.16227
G1 X123.378 Y103.001 E1.18760
G1 X123.431 Y103.474 E1.20343
G1 X123.475 Y104.043 E1.22241
G1 X123.501 Y104.696 E1.24415
G1 X123.503 Y105.221 E1.26161
G1 X123.488 Y105.713 E1.27798
G1 X123.441 Y106.414 E1.30135
G1 X123.390 Y106.902 E1.31767
G1 X123.302 Y107.530 E1.33876
G1 X123.212 Y108.039 E1.35595
G1 X123.075 Y108.677 E1.37765
G1 X122.961 Y109.130 E1.39319
G1 X122.770 Y109.788 E1.41598
G1 X122.616 Y110.256 E1.43237
G1 X122.403 Y110.829 E1.45270
G1 X122.173 Y111.387 E1.47277
G1 X121.964 Y111.849 E1.48964
G1 X121.699 Y112.381 E1.50941
G1 X121.390 Y112.950 E1.53094
G1 X121.160 Y113.339 E1.54597
G1 X120.831 Y113.853 E1.56627
G1 X120.439 Y114.418 E1.58914
G1 X120.153 Y114.800 E1.60501
G1 X119.832 Y115.199 E1.62205
G1 X119.396 Y115.703 E1.64421
G1 X118.996 Y116.133 E1.66374
G1 X118.627 Y116.502 E1.68110
G1 X118.228 Y116.873 E1.69922
G1 X117.612 Y117.405 E1.72629
G1 X117.465 Y117.524 E1.73258
G1 X116.791 Y118.029 E1.76060
G1 X116.330 Y118.347 E1.77922
G1 X115.944 Y118.595 E1.79448
G1 X115.404 Y118.916 E1.81538
G1 X114.867 Y119.207 E1.83569
G1 X114.388 Y119.446 E1.85350
G1 X113.876 Y119.678 E1.87219
G1 X113.268 Y119.928 E1.89406
G1 X112.832 Y120.090 E1.90953
G1 X112.233 Y120.287 E1.93050
G1 X111.695 Y120.444 E1.94914
G1 X111.099 Y120.594 E1.96958
G1 X110.551 Y120.711 E1.98822
G1 X110.104 Y120.791 E2.00332
G1 X109.390 Y120.891 E2.02730
G1 X108.875 Y120.944 E2.04452
G1 X108.279 Y120.984 E2.06439
G1 X107.636 Y121.003 E2.08578
G1 X107.207 Y121.002 E2.10005
G1 X106.638 Y120.979 E2.11899
G1 X105.891 Y120.922 E2.14391
G1 X105.475 Y120.875 E2.15783
G1 X104.810 Y120.776 E2.18020
G1 X104.269 Y120.674 E2.19851
G1 X103.820 Y120.575 E2.21380
G1 X103.142 Y120.398 E2.23711
G1 X102.581 Y120.229 E2.25659
G1 X102.112 Y120.069 E2.27307
G1 X101.538 Y119.851 E2.29350
G1 X100.980 Y119.616 E2.31363
G1 X100.542 Y119.412 E2.32970
G1 X100.003 Y119.138 E2.34982
G1 X99.422 Y118.815 E2.37193
G1 X98.950 Y118.528 E2.39030
G1 X98.626 Y118.317 E2.40316
G1 X97.942 Y117.834 E2.43101
G1 X97.568 Y117.549 E2.44665
G1 X97.184 Y117.234 E2.46317
G1 X96.665 Y116.777 E2.48617
G1 X96.302 Y116.433 E2.50280
G1 X95.926 Y116.051 E2.52063
G1 X95.450 Y115.531 E2.54408
G1 X95.096 Y115.113 E2.56229
G1 X94.798 Y114.737 E2.57825
G1 X94.463 Y114.281 E2.59707
G1 X94.073 Y113.708 E2.62012
G1 X93.781 Y113.242 E2.63842
G1 X93.566 Y112.870 E2.65271
G1 X93.176 Y112.137 E2.68032
G1 X93.023 Y111.821 E2.69200
G1 X92.739 Y111.182 E2.71526
G1 X92.550 Y110.711 E2.73214
G1 X92.359 Y110.179 E2.75094
G1 X92.157 Y109.549 E2.77294
G1 X92.017 Y109.048 E2.79024
G1 X91.881 Y108.487 E2.80944
G1 X91.766 Y107.927 E2.82846
G1 X91.676 Y107.388 E2.84663
G1 X91.597 Y106.787 E2.86679
G1 X91.542 Y106.204 E2.88627
G1 X91.512 Y105.684 E2.90359
G1 X91.500 Y105.129 E2.92206
G1 X91.512 Y104.379 E2.94701
G1 X91.560 Y103.548 E2.97469
G1 X91.572 Y103.418 E2.97903
G1 X91.637 Y102.883 E2.99696
G1 X91.751 Y102.159 E3.02134
G1 X91.855 Y101.631 E3.03923
G1 X91.958 Y101.186 E3.05443
G1 X92.151 Y100.475 E3.07893
G1 X92.326 Y99.911 E3.09857
G1 X92.435 Y99.600 E3.10953
G1 X92.765 Y98.755 E3.13970
G1 X92.866 Y98.523 E3.14812
G1 X93.231 Y97.755 E3.17640
G1 X93.451 Y97.336 E3.19214
G1 X93.640 Y97.002 E3.20491
G1 X94.141 Y96.188 E3.23670
G1 X94.260 Y96.009 E3.24385
G1 X94.704 Y95.390 E3.26918
G1 X95.036 Y94.963 E3.28717
G1 X95.440 Y94.481 E3.30809
G1 X95.751 Y94.134 E3.32359
G1 X96.180 Y93.688 E3.34417
G0 F7200.00000 X96.472 Y93.961
G1 F1200.000 X96.789 Y93.654 E3.35885
G1 X97.328 Y93.169 E3.38296
G1 X97.754 Y92.814 E3.40141
G1 X98.149 Y92.507 E3.41805
G1 X98.577 Y92.199 E3.43559
G1 X99.068 Y91.872 E3.45521
G1 X99.581 Y91.556 E3.47525
G1 X100.041 Y91.295 E3.49284
G1 X100.523 Y91.043 E3.51093
G1 X101.039 Y90.797 E3.52994
G1 X101.611 Y90.550 E3.55066
G1 X101.986 Y90.403 E3.56406
G1 X102.686 Y90.158 E3.58873
G1 X103.098 Y90.030 E3.60308
G1 X103.655 Y89.878 E3.62228
G1 X104.282 Y89.732 E3.64369
G1 X104.690 Y89.652 E3.65752
G1 X105.411 Y89.537 E3.68180
G1 X105.865 Y89.482 E3.69701
G1 X106.431 Y89.433 E3.71591
G1 X107.018 Y89.404 E3.73546
G1 X107.532 Y89.396 E3.75256
G1 X108.160 Y89.410 E3.77345
G1 X108.749 Y89.446 E3.79307
G1 X109.106 Y89.479 E3.80500
G1 X109.923 Y89.586 E3.83240
G1 X110.281 Y89.646 E3.84448
G1 X110.860 Y89.763 E3.86412
G1 X111.570 Y89.936 E3.88843
G1 X111.864 Y90.018 E3.89858
G1 X112.603 Y90.255 E3.92439
G1 X112.991 Y90.394 E3.93810
G1 X113.586 Y90.633 E3.95943
G1 X114.047 Y90.837 E3.97620
G1 X114.573 Y91.093 E3.99565
G1 X115.137 Y91.393 E4.01690
G1 X115.458 Y91.579 E4.02924
G1 X116.162 Y92.021 E4.05689
G1 X116.383 Y92.171 E4.06577
G1 X117.038 Y92.651 E4.09278
G1 X117.293 Y92.852 E4.10358
G1 X117.835 Y93.312 E4.12722
G1 X118.267 Y93.707 E4.14669
G1 X118.620 Y94.055 E4.16318
G1 X119.072 Y94.531 E4.18501
G1 X119.265 Y94.749 E4.19470
G1 X119.782 Y95.378 E4.22178
G1 X120.125 Y95.831 E4.24067
G1 X120.364 Y96.168 E4.25442
G1 X120.674 Y96.642 E4.27325
G1 X121.092 Y97.335 E4.30017
G1 X121.181 Y97.494 E4.30623
G1 X121.533 Y98.182 E4.33194
G1 X121.788 Y98.730 E4.35204
G1 X121.963 Y99.144 E4.36699
G1 X122.193 Y99.746 E4.38842
G1 X122.340 Y100.177 E4.40357
G1 X122.522 Y100.781 E4.42455
G1 X122.674 Y101.362 E4.44452
G1 X122.785 Y101.863 E4.46159
G1 X122.883 Y102.383 E4.47919
G1 X122.976 Y103.004 E4.50008
G1 X123.029 Y103.471 E4.51571
G1 X123.077 Y104.096 E4.53656
G1 X123.102 Y104.697 E4.55656
G1 X123.103 Y105.141 E4.57133
G1 X123.082 Y105.832 E4.59432
G1 X123.053 Y106.262 E4.60866
G1 X122.993 Y106.851 E4.62835
G1 X122.898 Y107.527 E4.65106
G1 X122.820 Y107.967 E4.66592
G1 X122.710 Y108.483 E4.68347
G1 X122.552 Y109.108 E4.70491
G1 X122.401 Y109.629 E4.72295
G1 X122.246 Y110.099 E4.73941
G1 X122.013 Y110.731 E4.76181
G1 X121.830 Y111.174 E4.77776
G1 X121.583 Y111.720 E4.79769
G1 X121.386 Y112.117 E4.81243
G1 X121.004 Y112.819 E4.83901
G1 X120.855 Y113.071 E4.84875
G1 X120.433 Y113.730 E4.87477
G1 X120.202 Y114.063 E4.88825
G1 X119.803 Y114.597 E4.91042
G1 X119.499 Y114.976 E4.92658
G1 X119.132 Y115.400 E4.94524
G1 X118.719 Y115.844 E4.96540
G1 X118.345 Y116.218 E4.98300
G1 X117.946 Y116.589 E5.00112
G1 X117.378 Y117.080 E5.02609
G1 X117.224 Y117.204 E5.03266
G1 X116.608 Y117.667 E5.05830
G1 X116.091 Y118.025 E5.07921
G1 X115.702 Y118.274 E5.09457
G1 X115.233 Y118.553 E5.11272
G1 X114.725 Y118.830 E5.13197
G1 X114.174 Y119.104 E5.15243
G1 X113.727 Y119.307 E5.16876
G1 X113.161 Y119.540 E5.18912
G1 X112.658 Y119.726 E5.20696
G1 X112.118 Y119.904 E5.22587
G1 X111.689 Y120.029 E5.24073
G1 X110.884 Y120.232 E5.26834
G1 X110.552 Y120.303 E5.27964
G1 X110.045 Y120.394 E5.29677
G1 X109.270 Y120.503 E5.32280
G1 X108.932 Y120.538 E5.33410
G1 X108.250 Y120.585 E5.35684
G1 X107.657 Y120.603 E5.37657
G1 X107.236 Y120.602 E5.39057
G1 X106.547 Y120.574 E5.41351
G1 X106.097 Y120.540 E5.42852
G1 X105.387 Y120.460 E5.45228
G1 X104.956 Y120.395 E5.46678
G1 X104.355 Y120.284 E5.48711
G1 X103.874 Y120.176 E5.50350
G1 X103.255 Y120.014 E5.52478
G1 X102.735 Y119.858 E5.54284
G1 X102.269 Y119.700 E5.55921
G1 X101.683 Y119.478 E5.58005
G1 X101.197 Y119.274 E5.59758
G1 X100.639 Y119.014 E5.61805
G1 X100.195 Y118.788 E5.63463
G1 X99.659 Y118.490 E5.65502
G1 X99.183 Y118.203 E5.67351
G1 X98.809 Y117.959 E5.68836
G1 X98.217 Y117.540 E5.71249
G1 X97.795 Y117.218 E5.73014
G1 X97.450 Y116.936 E5.74496
G1 X96.974 Y116.517 E5.76605
G1 X96.576 Y116.141 E5.78426
G1 X96.182 Y115.741 E5.80294
G1 X95.786 Y115.308 E5.82245
G1 X95.447 Y114.909 E5.83987
G1 X95.032 Y114.384 E5.86213
G1 X94.855 Y114.143 E5.87207
G1 X94.375 Y113.437 E5.90047
G1 X94.155 Y113.087 E5.91422
G1 X93.898 Y112.644 E5.93125
G1 X93.552 Y111.994 E5.95574
G1 X93.375 Y111.629 E5.96923
G1 X93.121 Y111.059 E5.98999
G1 X92.929 Y110.579 E6.00718
G1 X92.717 Y109.991 E6.02797
G1 X92.566 Y109.520 E6.04442
G1 X92.394 Y108.910 E6.06550
G1 X92.276 Y108.421 E6.08223
G1 X92.165 Y107.882 E6.10054
G1 X92.073 Y107.340 E6.11882
G1 X91.983 Y106.653 E6.14187
G1 X91.952 Y106.318 E6.15306
G1 X91.908 Y105.573 E6.17788
G1 X91.899 Y105.170 E6.19129
G1 X91.912 Y104.397 E6.21700
G1 X91.956 Y103.618 E6.24295
G1 X91.978 Y103.385 E6.25073
G1 X92.019 Y103.043 E6.26219
G1 X92.163 Y102.132 E6.29287
G1 X92.233 Y101.775 E6.30497
G1 X92.349 Y101.273 E6.32210
G1 X92.543 Y100.555 E6.34684
G1 X92.684 Y100.103 E6.36259
G1 X92.828 Y99.690 E6.37714
G1 X93.130 Y98.916 E6.40477
G1 X93.211 Y98.730 E6.41152
G1 X93.625 Y97.862 E6.44350
G1 X93.755 Y97.613 E6.45285
G1 X94.013 Y97.156 E6.47030
G1 X94.466 Y96.421 E6.49902
G1 X94.619 Y96.191 E6.50820
G1 X94.939 Y95.744 E6.52649
G1 X95.411 Y95.135 E6.55212
G1 X95.722 Y94.763 E6.56824
G1 X96.045 Y94.404 E6.58430
G1 X96.472 Y93.961 E6.60477
G0 F7200.00000 X96.831 Y94.168
G1 F1200.000 X97.003 Y94.001 E6.61274
G1 X97.578 Y93.482 E6.63851
G1 X98.040 Y93.098 E6.65849
G1 X98.330 Y92.873 E6.67069
G1 X98.893 Y92.468 E6.69376
G1 X99.231 Y92.242 E6.70729
G1 X99.772 Y91.908 E6.72843
G1 X100.195 Y91.667 E6.74462
G1 X100.756 Y91.375 E6.76566
G1 X101.218 Y91.155 E6.78268
G1 X101.656 Y90.965 E6.79856
G1 X102.226 Y90.742 E6.81892
G1 X102.722 Y90.567 E6.83641
G1 X103.276 Y90.395 E6.85570
G1 X103.753 Y90.265 E6.87215
G1 X104.305 Y90.136 E6.89100
G1 X104.845 Y90.030 E6.90930
G1 X105.362 Y89.948 E6.92671
G1 X105.961 Y89.874 E6.94679
G1 X106.451 Y89.832 E6.96315
G1 X106.991 Y89.805 E6.98113
G1 X107.544 Y89.797 E6.99952
G1 X108.141 Y89.810 E7.01939
G1 X108.654 Y89.840 E7.03648
G1 X109.150 Y89.886 E7.05304
G1 X109.737 Y89.963 E7.07274
G1 X110.291 Y90.055 E7.09141
G1 X110.759 Y90.151 E7.10730
G1 X111.416 Y90.310 E7.12979
G1 X111.840 Y90.429 E7.14443
G1 X112.358 Y90.594 E7.16252
G1 X112.935 Y90.802 E7.18292
G1 X113.412 Y90.993 E7.20001
G1 X113.852 Y91.187 E7.21600
G1 X114.391 Y91.449 E7.23593
G1 X114.915 Y91.727 E7.25566
G1 X115.308 Y91.955 E7.27077
G1 X115.855 Y92.299 E7.29226
G1 X116.230 Y92.553 E7.30733
G1 X116.727 Y92.916 E7.32780
G1 X117.045 Y93.166 E7.34125
G1 X117.641 Y93.673 E7.36728
G1 X117.915 Y93.924 E7.37964
G1 X118.338 Y94.339 E7.39935
G1 X118.767 Y94.791 E7.42007
G1 X119.002 Y95.057 E7.43188
G1 X119.430 Y95.577 E7.45428
G1 X119.766 Y96.018 E7.47272
G1 X120.109 Y96.504 E7.49250
G1 X120.282 Y96.769 E7.50303
G1 X120.745 Y97.536 E7.53283
G1 X120.876 Y97.770 E7.54175
G1 X121.118 Y98.243 E7.55942
G1 X121.457 Y98.972 E7.58616
G1 X121.576 Y99.252 E7.59628
G1 X121.807 Y99.856 E7.61779
G1 X121.978 Y100.360 E7.63549
G1 X122.132 Y100.872 E7.65327
G1 X122.270 Y101.396 E7.67129
G1 X122.402 Y101.986 E7.69140
G1 X122.484 Y102.425 E7.70626
G1 X122.583 Y103.086 E7.72849
G1 X122.626 Y103.457 E7.74091
G1 X122.681 Y104.170 E7.76469
G1 X122.701 Y104.660 E7.78100
G1 X122.703 Y105.211 E7.79933
G1 X122.691 Y105.619 E7.81291
G1 X122.639 Y106.391 E7.83864
G1 X122.602 Y106.755 E7.85081
G1 X122.511 Y107.409 E7.87277
G1 X122.431 Y107.862 E7.88807
G1 X122.293 Y108.510 E7.91011
G1 X122.196 Y108.898 E7.92341
G1 X122.021 Y109.502 E7.94432
G1 X121.857 Y110.001 E7.96180
G1 X121.647 Y110.568 E7.98191
G1 X121.470 Y111.000 E7.99743
G1 X121.243 Y111.500 E8.01570
G1 X121.004 Y111.983 E8.03362
G1 X120.674 Y112.590 E8.05660
G1 X120.498 Y112.887 E8.06808
G1 X120.136 Y113.454 E8.09046
G1 X119.854 Y113.861 E8.10693
G1 X119.490 Y114.349 E8.12717
G1 X119.210 Y114.697 E8.14203
G1 X118.837 Y115.130 E8.16104
G1 X118.387 Y115.614 E8.18302
G1 X118.109 Y115.892 E8.19610
G1 X117.690 Y116.282 E8.21513
G1 X117.154 Y116.746 E8.23871
G1 X116.920 Y116.934 E8.24870
G1 X116.419 Y117.310 E8.26953
G1 X115.841 Y117.711 E8.29293
G1 X115.516 Y117.919 E8.30576
G1 X115.080 Y118.178 E8.32263
G1 X114.461 Y118.515 E8.34607
G1 X114.040 Y118.725 E8.36172
G1 X113.580 Y118.935 E8.37854
G1 X113.006 Y119.172 E8.39919
G1 X112.546 Y119.342 E8.41550
G1 X112.028 Y119.514 E8.43366
G1 X111.532 Y119.658 E8.45084
G1 X110.828 Y119.835 E8.47498
G1 X110.535 Y119.898 E8.48495
G1 X109.904 Y120.011 E8.50627
G1 X109.335 Y120.092 E8.52538
G1 X108.750 Y120.152 E8.54494
G1 X108.346 Y120.180 E8.55841
G1 X107.645 Y120.202 E8.58174
G1 X107.168 Y120.200 E8.59761
G1 X106.667 Y120.181 E8.61428
G1 X106.045 Y120.134 E8.63503
G1 X105.568 Y120.080 E8.65099
G1 X104.966 Y119.991 E8.67123
G1 X104.445 Y119.894 E8.68886
G1 X104.002 Y119.795 E8.70396
G1 X103.335 Y119.622 E8.72688
G1 X102.886 Y119.487 E8.74247
G1 X102.408 Y119.325 E8.75926
G1 X101.814 Y119.099 E8.78040
G1 X101.314 Y118.889 E8.79843
G1 X100.918 Y118.705 E8.81296
G1 X100.359 Y118.421 E8.83381
G1 X99.851 Y118.139 E8.85314
G1 X99.431 Y117.885 E8.86946
G1 X98.991 Y117.599 E8.88691
G1 X98.533 Y117.275 E8.90557
G1 X97.964 Y116.841 E8.92938
G1 X97.755 Y116.670 E8.93836
G1 X97.196 Y116.178 E8.96313
G1 X96.909 Y115.907 E8.97625
G1 X96.466 Y115.458 E8.99723
G1 X96.071 Y115.026 E9.01670
G1 X95.771 Y114.673 E9.03211
G1 X95.366 Y114.162 E9.05380
G1 X95.161 Y113.882 E9.06534
G1 X94.724 Y113.240 E9.09117
G1 X94.483 Y112.858 E9.10619
G1 X94.271 Y112.492 E9.12026
G1 X93.910 Y111.816 E9.14575
G1 X93.734 Y111.454 E9.15914
G1 X93.476 Y110.873 E9.18028
G1 X93.325 Y110.497 E9.19376
G1 X93.109 Y109.901 E9.21484
G1 X92.923 Y109.318 E9.23520
G1 X92.812 Y108.925 E9.24878
G1 X92.653 Y108.270 E9.27120
G1 X92.562 Y107.829 E9.28617
G1 X92.460 Y107.223 E9.30661
G1 X92.400 Y106.769 E9.32184
G1 X92.337 Y106.117 E9.34363
G1 X92.311 Y105.664 E9.35872
G1 X92.300 Y105.145 E9.37599
G1 X92.311 Y104.424 E9.39997
G1 X92.351 Y103.709 E9.42379
G1 X92.383 Y103.359 E9.43548
G1 X92.417 Y103.075 E9.44499
G1 X92.537 Y102.310 E9.47075
G1 X92.637 Y101.799 E9.48807
G1 X92.736 Y101.371 E9.50268
G1 X92.908 Y100.734 E9.52462
G1 X93.075 Y100.197 E9.54333
G1 X93.214 Y99.798 E9.55738
G1 X93.453 Y99.185 E9.57926
