;FLAVOR:RepRap
;TIME:259
M104 S200.000000
M109 S200.000000
; -- START GCODE --
G21                     ;set units to millimetres
G90                     ;set to absolute positioning
M106 S0                 ;set fan speed to zero (turned off)
G28 X0 Y0               ;move to the X/Y origin (Home)
G28 Z0                  ;move to the Z origin (Home)
G1 Z15.0 F1200          ;move Z to position 15.0 mm
G92 E0                  ;zero the extruded length
G1 E20 F200             ;extrude 20mm of feed stock
G92 E0                  ;zero the extruded length again
G1 F7200                ;set feedrate to 120 mm/sec
; -- end of START GCODE --
;Generated with Cura_SteamEngine 2.1.2
;LAYER_COUNT:17
;LAYER:0
M107
G1 F1800.000000 E-6.50000
G1 Z20.075
G0 F7200.000 X95.914 Y93.953 Z0.275
;TYPE:SKIRT
G1 Z0.200
G1 F1800.000 E0.00000
G1 F1200.00000 X96.391 Y93.475 E0.02246
G1 X96.772 Y93.118 E0.03983
G1 X97.178 Y92.764 E0.05774
G1 X97.586 Y92.431 E0.07526
G1 X98.031 Y92.092 E0.09386
G1 X98.407 Y91.825 E0.10920
G1 X98.933 Y91.478 E0.13016
G1 X99.319 Y91.241 E0.14523
G1 X99.860 Y90.933 E0.16593
G1 X100.361 Y90.671 E0.18474
G1 X100.709 Y90.503 E0.19759
G1 X101.305 Y90.239 E0.21927
G1 X101.780 Y90.048 E0.23630
G1 X102.288 Y89.864 E0.25427
G1 X102.852 Y89.680 E0.27400
G1 X103.328 Y89.543 E0.29047
G1 X103.694 Y89.450 E0.30303
G1 X104.485 Y89.278 E0.32996
G1 X104.827 Y89.216 E0.34152
G1 X105.471 Y89.120 E0.36317
G1 X105.893 Y89.072 E0.37730
G1 X106.501 Y89.023 E0.39759
G1 X107.069 Y88.997 E0.41650
G1 X107.546 Y88.992 E0.43237
G1 X108.081 Y89.002 E0.45016
G1 X108.674 Y89.035 E0.46992
G1 X109.171 Y89.079 E0.48651
G1 X109.678 Y89.141 E0.50350
G1 X110.367 Y89.249 E0.52670
G1 X110.640 Y89.301 E0.53594
G1 X111.373 Y89.467 E0.56094
G1 X111.815 Y89.583 E0.57614
G1 X112.285 Y89.723 E0.59245
G1 X112.878 Y89.921 E0.61324
G1 X113.281 Y90.072 E0.62755
G1 X113.978 Y90.359 E0.65262
G1 X114.258 Y90.486 E0.66285
G1 X114.810 Y90.757 E0.68330
G1 X115.239 Y90.987 E0.69949
G1 X115.874 Y91.355 E0.72390
G1 X116.138 Y91.520 E0.73426
G1 X116.690 Y91.892 E0.75640
G1 X117.123 Y92.205 E0.77417
G1 X117.435 Y92.446 E0.78728
G1 X118.022 Y92.934 E0.81267
G1 X118.263 Y93.148 E0.82339
G1 X118.811 Y93.670 E0.84856
G1 X119.000 Y93.862 E0.85752
G1 X119.528 Y94.435 E0.88344
G1 X119.785 Y94.736 E0.89660
G1 X120.139 Y95.177 E0.91541
G1 X120.519 Y95.684 E0.93648
G1 X120.734 Y95.992 E0.94898
G1 X121.105 Y96.564 E0.97165
G1 X121.335 Y96.945 E0.98646
G1 X121.624 Y97.465 E1.00624
G1 X121.893 Y97.989 E1.02583
G1 X122.070 Y98.363 E1.03960
G1 X122.257 Y98.793 E1.05519
G1 X122.541 Y99.517 E1.08106
G1 X122.684 Y99.923 E1.09537
G1 X122.823 Y100.360 E1.11063
G1 X122.991 Y100.959 E1.13132
G1 X123.121 Y101.490 E1.14950
G1 X123.221 Y101.970 E1.16581
G1 X123.308 Y102.471 E1.18272
G1 X123.405 Y103.167 E1.20609
G1 X123.435 Y103.450 E1.21556
G1 X123.497 Y104.331 E1.24493
G1 X123.499 Y104.381 E1.24660
G1 X123.504 Y105.410 E1.28082
G1 X123.497 Y105.639 E1.28844
G1 X123.455 Y106.314 E1.31094
G1 X123.413 Y106.754 E1.32564
G1 X123.328 Y107.404 E1.34744
G1 X123.246 Y107.898 E1.36410
G1 X123.147 Y108.391 E1.38082
G1 X123.040 Y108.845 E1.39634
G1 X122.840 Y109.583 E1.42177
G1 X122.772 Y109.805 E1.42949
G1 X122.503 Y110.585 E1.45693
G1 X122.367 Y110.940 E1.46958
G1 X122.134 Y111.492 E1.48950
G1 X121.943 Y111.907 E1.50470
G1 X121.661 Y112.467 E1.52555
G1 X121.455 Y112.844 E1.53984
G1 X121.119 Y113.414 E1.56185
G1 X120.838 Y113.855 E1.57924
G1 X120.595 Y114.210 E1.59355
G1 X120.211 Y114.731 E1.61508
G1 X119.887 Y115.141 E1.63246
G1 X119.611 Y115.469 E1.64671
G1 X119.122 Y116.009 E1.67095
G1 X118.834 Y116.308 E1.68475
G1 X118.462 Y116.667 E1.70195
G1 X117.982 Y117.101 E1.72347
G1 X117.706 Y117.334 E1.73548
G1 X117.175 Y117.754 E1.75800
G1 X116.751 Y118.065 E1.77549
G1 X116.317 Y118.362 E1.79298
G1 X115.958 Y118.591 E1.80715
G1 X115.338 Y118.958 E1.83111
G1 X114.910 Y119.191 E1.84732
G1 X114.495 Y119.399 E1.86276
G1 X113.900 Y119.674 E1.88456
G1 X113.521 Y119.834 E1.89824
G1 X113.048 Y120.016 E1.91510
G1 X112.366 Y120.251 E1.93909
G1 X111.921 Y120.387 E1.95457
G1 X111.489 Y120.505 E1.96946
G1 X110.884 Y120.647 E1.99013
G1 X110.368 Y120.750 E2.00763
G1 X109.881 Y120.831 E2.02405
G1 X109.267 Y120.912 E2.04465
G1 X108.814 Y120.955 E2.05978
G1 X108.186 Y120.994 E2.08071
G1 X107.725 Y121.008 E2.09605
G1 X107.141 Y121.005 E2.11548
G1 X106.699 Y120.989 E2.13019
G1 X106.049 Y120.943 E2.15186
G1 X105.608 Y120.896 E2.16661
G1 X104.945 Y120.804 E2.18887
G1 X104.570 Y120.739 E2.20153
G1 X103.896 Y120.598 E2.22443
G1 X103.409 Y120.478 E2.24112
G1 X103.101 Y120.392 E2.25175
G1 X102.300 Y120.139 E2.27969
G1 X101.902 Y119.997 E2.29375
G1 X101.364 Y119.786 E2.31297
G1 X100.981 Y119.621 E2.32684
G1 X100.363 Y119.329 E2.34957
G1 X100.070 Y119.179 E2.36052
G1 X99.395 Y118.803 E2.38622
G1 X98.991 Y118.560 E2.40190
G1 X98.593 Y118.301 E2.41769
G1 X98.161 Y118.001 E2.43518
G1 X97.635 Y117.606 E2.45706
G1 X97.321 Y117.355 E2.47043
G1 X96.821 Y116.925 E2.49237
G1 X96.462 Y116.594 E2.50861
G1 X96.184 Y116.322 E2.52154
G1 X95.568 Y115.673 E2.55131
G1 X95.475 Y115.568 E2.55597
G1 X95.010 Y115.010 E2.58013
G1 X94.612 Y114.495 E2.60178
G1 X94.415 Y114.222 E2.61297
G1 X94.083 Y113.729 E2.63274
G1 X93.751 Y113.198 E2.65357
G1 X93.546 Y112.843 E2.66721
G1 X93.241 Y112.273 E2.68871
G1 X92.995 Y111.772 E2.70727
G1 X92.846 Y111.444 E2.71925
G1 X92.616 Y110.889 E2.73924
G1 X92.379 Y110.252 E2.76184
G1 X92.233 Y109.817 E2.77710
G1 X92.107 Y109.395 E2.79175
G1 X91.931 Y108.722 E2.81489
G1 X91.825 Y108.251 E2.83095
G1 X91.744 Y107.827 E2.84530
G1 X91.640 Y107.172 E2.86736
G1 X91.587 Y106.737 E2.88194
G1 X91.523 Y106.005 E2.90638
G1 X91.507 Y105.703 E2.91643
G1 X91.493 Y105.101 E2.93646
G1 X91.501 Y104.492 E2.95672
G1 X91.525 Y103.962 E2.97437
G1 X91.566 Y103.461 E2.99108
G1 X91.623 Y102.952 E3.00812
G1 X91.706 Y102.390 E3.02701
G1 X91.819 Y101.777 E3.04775
G1 X91.905 Y101.383 E3.06116
G1 X92.051 Y100.808 E3.08089
G1 X92.195 Y100.309 E3.09817
G1 X92.359 Y99.804 E3.11583
G1 X92.539 Y99.311 E3.13328
G1 X92.804 Y98.653 E3.15687
G1 X92.928 Y98.372 E3.16709
G1 X93.201 Y97.805 E3.18802
G1 X93.439 Y97.350 E3.20510
G1 X93.758 Y96.790 E3.22654
G1 X93.998 Y96.400 E3.24177
G1 X94.228 Y96.050 E3.25570
G1 X94.710 Y95.372 E3.28336
G1 X94.870 Y95.162 E3.29214
G1 X95.240 Y94.708 E3.31162
G1 X95.718 Y94.162 E3.33576
G1 X95.914 Y93.953 E3.34529
G0 F7200.00000 X96.253 Y94.177
G1 F1200.000 X96.610 Y93.820 E3.36208
G1 X97.109 Y93.354 E3.38479
G1 X97.350 Y93.143 E3.39544
G1 X97.867 Y92.720 E3.41766
G1 X98.269 Y92.415 E3.43445
G1 X98.638 Y92.152 E3.44952
G1 X99.114 Y91.837 E3.46850
G1 X99.578 Y91.552 E3.48661
G1 X100.012 Y91.305 E3.50322
G1 X100.483 Y91.058 E3.52091
G1 X100.968 Y90.825 E3.53881
G1 X101.394 Y90.636 E3.55431
G1 X101.944 Y90.414 E3.57403
G1 X102.416 Y90.243 E3.59073
G1 X102.902 Y90.084 E3.60774
G1 X103.437 Y89.929 E3.62627
G1 X103.846 Y89.825 E3.64030
G1 X104.537 Y89.675 E3.66382
G1 X104.833 Y89.621 E3.67383
G1 X105.609 Y89.506 E3.69992
G1 X105.865 Y89.476 E3.70849
G1 X106.565 Y89.420 E3.73185
G1 X107.058 Y89.398 E3.74826
G1 X107.569 Y89.391 E3.76526
G1 X108.007 Y89.400 E3.77983
G1 X108.687 Y89.437 E3.80248
G1 X109.070 Y89.470 E3.81527
G1 X109.639 Y89.540 E3.83433
G1 X110.279 Y89.640 E3.85588
G1 X110.574 Y89.697 E3.86587
G1 X111.315 Y89.864 E3.89114
G1 X111.622 Y89.945 E3.90170
G1 X112.219 Y90.122 E3.92241
G1 X112.709 Y90.286 E3.93959
G1 X113.205 Y90.471 E3.95720
G1 X113.682 Y90.667 E3.97435
G1 X114.166 Y90.886 E3.99202
G1 X114.594 Y91.096 E4.00788
G1 X115.124 Y91.380 E4.02788
G1 X115.505 Y91.600 E4.04251
G1 X116.026 Y91.925 E4.06293
G1 X116.427 Y92.195 E4.07901
G1 X116.829 Y92.486 E4.09552
G1 X117.259 Y92.819 E4.11361
G1 X117.672 Y93.161 E4.13144
G1 X118.076 Y93.520 E4.14942
G1 X118.452 Y93.878 E4.16669
G1 X118.729 Y94.159 E4.17981
G1 X119.256 Y94.732 E4.20570
G1 X119.445 Y94.951 E4.21532
G1 X119.849 Y95.453 E4.23676
G1 X120.157 Y95.865 E4.25386
G1 X120.443 Y96.275 E4.27049
G1 X120.705 Y96.678 E4.28648
G1 X121.018 Y97.198 E4.30667
G1 X121.291 Y97.690 E4.32538
G1 X121.522 Y98.140 E4.34220
G1 X121.680 Y98.473 E4.35446
G1 X121.901 Y98.981 E4.37289
G1 X122.155 Y99.627 E4.39598
G1 X122.295 Y100.024 E4.40998
G1 X122.447 Y100.503 E4.42669
G1 X122.611 Y101.086 E4.44684
G1 X122.710 Y101.490 E4.46067
G1 X122.846 Y102.142 E4.48282
G1 X122.910 Y102.508 E4.49518
G1 X123.001 Y103.162 E4.51714
G1 X123.035 Y103.488 E4.52804
G1 X123.100 Y104.398 E4.55839
G1 X123.105 Y105.319 E4.58902
G1 X123.092 Y105.758 E4.60363
G1 X123.068 Y106.153 E4.61679
G1 X123.009 Y106.766 E4.63727
G1 X122.935 Y107.330 E4.65619
G1 X122.861 Y107.775 E4.67120
G1 X122.757 Y108.294 E4.68880
G1 X122.631 Y108.832 E4.70718
G1 X122.479 Y109.395 E4.72658
G1 X122.377 Y109.726 E4.73810
G1 X122.145 Y110.402 E4.76187
G1 X122.002 Y110.774 E4.77512
G1 X121.772 Y111.320 E4.79483
G1 X121.533 Y111.835 E4.81371
G1 X121.387 Y112.127 E4.82457
G1 X121.038 Y112.768 E4.84884
G1 X120.785 Y113.195 E4.86535
G1 X120.544 Y113.574 E4.88029
G1 X120.239 Y114.019 E4.89823
G1 X119.898 Y114.484 E4.91741
G1 X119.598 Y114.864 E4.93352
G1 X119.300 Y115.218 E4.94891
G1 X118.921 Y115.639 E4.96775
G1 X118.481 Y116.094 E4.98880
G1 X118.191 Y116.374 E5.00221
G1 X117.753 Y116.769 E5.02182
G1 X117.450 Y117.026 E5.03504
G1 X116.902 Y117.459 E5.05827
G1 X116.554 Y117.715 E5.07264
G1 X116.085 Y118.036 E5.09154
G1 X115.730 Y118.262 E5.10554
G1 X115.207 Y118.573 E5.12577
G1 X114.694 Y118.853 E5.14521
G1 X114.330 Y119.036 E5.15876
G1 X113.733 Y119.311 E5.18063
G1 X113.390 Y119.456 E5.19301
G1 X112.862 Y119.659 E5.21183
G1 X112.326 Y119.844 E5.23068
G1 X111.836 Y119.994 E5.24773
G1 X111.293 Y120.142 E5.26645
G1 X110.898 Y120.235 E5.27995
G1 X110.288 Y120.358 E5.30064
G1 X109.829 Y120.434 E5.31612
G1 X109.149 Y120.523 E5.33893
G1 X108.903 Y120.547 E5.34715
G1 X108.103 Y120.597 E5.37381
G1 X107.752 Y120.607 E5.38549
G1 X107.232 Y120.605 E5.40278
G1 X106.572 Y120.581 E5.42475
G1 X106.189 Y120.554 E5.43752
G1 X105.604 Y120.493 E5.45708
G1 X105.047 Y120.415 E5.47579
G1 X104.594 Y120.336 E5.49108
G1 X104.095 Y120.232 E5.50803
G1 X103.455 Y120.076 E5.52994
G1 X103.161 Y119.994 E5.54010
G1 X102.483 Y119.780 E5.56374
G1 X102.035 Y119.621 E5.57955
G1 X101.532 Y119.423 E5.59753
G1 X101.133 Y119.251 E5.61199
G1 X100.617 Y119.008 E5.63096
G1 X100.189 Y118.789 E5.64695
G1 X99.599 Y118.460 E5.66941
G1 X99.252 Y118.251 E5.68289
G1 X98.764 Y117.934 E5.70224
G1 X98.415 Y117.691 E5.71639
G1 X97.961 Y117.353 E5.73521
G1 X97.463 Y116.953 E5.75646
G1 X97.160 Y116.692 E5.76976
G1 X96.742 Y116.308 E5.78864
G1 X96.434 Y116.005 E5.80301
G1 X95.949 Y115.497 E5.82637
G1 X95.681 Y115.194 E5.83982
G1 X95.369 Y114.820 E5.85602
G1 X94.947 Y114.275 E5.87895
G1 X94.720 Y113.961 E5.89183
G1 X94.399 Y113.484 E5.91096
G1 X94.175 Y113.127 E5.92497
G1 X93.819 Y112.512 E5.94861
G1 X93.656 Y112.206 E5.96014
G1 X93.355 Y111.596 E5.98276
G1 X93.209 Y111.275 E5.99449
G1 X92.968 Y110.690 E6.01554
G1 X92.789 Y110.213 E6.03248
G1 X92.590 Y109.616 E6.05341
G1 X92.510 Y109.349 E6.06268
G1 X92.326 Y108.650 E6.08672
G1 X92.205 Y108.112 E6.10506
G1 X92.139 Y107.770 E6.11665
G1 X92.049 Y107.204 E6.13571
G1 X91.971 Y106.563 E6.15719
G1 X91.932 Y106.129 E6.17168
G1 X91.903 Y105.597 E6.18940
G1 X91.892 Y105.104 E6.20580
G1 X91.899 Y104.543 E6.22446
G1 X91.923 Y104.016 E6.24201
G1 X91.968 Y103.453 E6.26080
G1 X92.015 Y103.040 E6.27462
G1 X92.105 Y102.429 E6.29516
G1 X92.196 Y101.932 E6.31197
G1 X92.303 Y101.442 E6.32865
G1 X92.446 Y100.878 E6.34800
G1 X92.573 Y100.438 E6.36323
G1 X92.743 Y99.915 E6.38152
G1 X92.891 Y99.507 E6.39596
G1 X93.171 Y98.813 E6.42085
G1 X93.322 Y98.472 E6.43325
G1 X93.521 Y98.056 E6.44859
G1 X93.782 Y97.558 E6.46729
G1 X94.104 Y96.991 E6.48898
G1 X94.335 Y96.615 E6.50366
G1 X94.559 Y96.275 E6.51720
G1 X95.021 Y95.624 E6.54375
G1 X95.189 Y95.403 E6.55298
G1 X95.545 Y94.967 E6.57170
G1 X95.967 Y94.484 E6.59304
G1 X96.253 Y94.177 E6.60699
G0 F7200.00000 X96.569 Y94.427
G1 F1200.000 X96.915 Y94.081 E6.62327
G1 X97.343 Y93.680 E6.64277
G1 X97.606 Y93.450 E6.65439
G1 X98.141 Y93.013 E6.67737
G1 X98.495 Y92.743 E6.69218
G1 X98.776 Y92.543 E6.70365
G1 X99.441 Y92.103 E6.73017
G1 X99.677 Y91.957 E6.73940
G1 X100.256 Y91.628 E6.76155
G1 X100.657 Y91.418 E6.77661
G1 X101.124 Y91.193 E6.79385
G1 X101.521 Y91.016 E6.80830
G1 X102.085 Y90.789 E6.82852
G1 X102.536 Y90.625 E6.84449
G1 X103.028 Y90.464 E6.86170
G1 X103.574 Y90.306 E6.88061
G1 X103.861 Y90.233 E6.89046
G1 X104.674 Y90.056 E6.91813
G1 X104.899 Y90.015 E6.92574
G1 X105.601 Y89.910 E6.94935
G1 X105.888 Y89.877 E6.95896
G1 X106.628 Y89.817 E6.98365
G1 X107.028 Y89.799 E6.99697
G1 X107.625 Y89.791 E7.01683
G1 X107.922 Y89.797 E7.02671
G1 X108.670 Y89.837 E7.05162
G1 X109.084 Y89.874 E7.06544
G1 X109.565 Y89.932 E7.08156
G1 X110.146 Y90.023 E7.10112
G1 X110.519 Y90.094 E7.11375
G1 X111.209 Y90.250 E7.13728
G1 X111.507 Y90.328 E7.14752
G1 X112.112 Y90.507 E7.16851
G1 X112.546 Y90.652 E7.18372
G1 X113.048 Y90.839 E7.20154
G1 X113.561 Y91.050 E7.21999
G1 X113.987 Y91.243 E7.23555
G1 X114.348 Y91.420 E7.24892
G1 X114.910 Y91.720 E7.27011
G1 X115.371 Y91.987 E7.28783
G1 X115.756 Y92.228 E7.30293
G1 X116.234 Y92.549 E7.32208
G1 X116.540 Y92.770 E7.33464
G1 X117.018 Y93.139 E7.35472
G1 X117.465 Y93.510 E7.37404
G1 X117.775 Y93.786 E7.38785
G1 X118.130 Y94.123 E7.40413
G1 X118.515 Y94.513 E7.42236
G1 X118.889 Y94.920 E7.44074
G1 X119.172 Y95.249 E7.45517
G1 X119.527 Y95.691 E7.47403
G1 X119.824 Y96.086 E7.49047
G1 X120.087 Y96.462 E7.50573
G1 X120.399 Y96.943 E7.52480
G1 X120.677 Y97.406 E7.54276
G1 X120.908 Y97.821 E7.55856
G1 X121.110 Y98.213 E7.57322
G1 X121.396 Y98.817 E7.59545
G1 X121.481 Y99.013 E7.60256
G1 X121.811 Y99.852 E7.63254
G1 X121.904 Y100.114 E7.64179
G1 X122.075 Y100.653 E7.66060
G1 X122.188 Y101.052 E7.67439
G1 X122.342 Y101.680 E7.69590
G1 X122.443 Y102.165 E7.71237
G1 X122.516 Y102.582 E7.72645
G1 X122.600 Y103.183 E7.74664
G1 X122.647 Y103.622 E7.76132
G1 X122.692 Y104.252 E7.78233
G1 X122.700 Y104.455 E7.78909
G1 X122.705 Y105.364 E7.81932
G1 X122.696 Y105.659 E7.82914
G1 X122.665 Y106.161 E7.84587
G1 X122.614 Y106.698 E7.86381
G1 X122.537 Y107.283 E7.88343
G1 X122.465 Y107.722 E7.89823
G1 X122.383 Y108.138 E7.91233
G1 X122.249 Y108.713 E7.93197
G1 X122.089 Y109.303 E7.95230
G1 X121.984 Y109.642 E7.96410
G1 X121.803 Y110.171 E7.98270
G1 X121.587 Y110.733 E8.00273
G1 X121.456 Y111.044 E8.01395
G1 X121.162 Y111.682 E8.03731
G1 X121.016 Y111.974 E8.04817
G1 X120.706 Y112.542 E8.06969
G1 X120.454 Y112.969 E8.08619
G1 X120.231 Y113.320 E8.10002
G1 X119.892 Y113.817 E8.12003
G1 X119.591 Y114.226 E8.13692
G1 X119.288 Y114.611 E8.15321
G1 X118.948 Y115.013 E8.17072
G1 X118.689 Y115.301 E8.18361
G1 X118.159 Y115.850 E8.20899
G1 X117.988 Y116.015 E8.21689
G1 X117.460 Y116.493 E8.24058
G1 X117.170 Y116.739 E8.25323
G1 X116.680 Y117.125 E8.27397
G1 X116.378 Y117.348 E8.28646
G1 X115.780 Y117.758 E8.31057
G1 X115.577 Y117.888 E8.31859
G1 X115.029 Y118.213 E8.33978
G1 X114.456 Y118.525 E8.36148
G1 X114.186 Y118.661 E8.37154
G1 X113.601 Y118.932 E8.39298
G1 X113.255 Y119.078 E8.40547
G1 X112.659 Y119.307 E8.42671
G1 X112.278 Y119.439 E8.44012
G1 X111.611 Y119.644 E8.46333
G1 X111.355 Y119.713 E8.47215
G1 X110.742 Y119.859 E8.49311
G1 X110.196 Y119.968 E8.51162
G1 X109.767 Y120.039 E8.52609
G1 X109.247 Y120.108 E8.54353
G1 X108.669 Y120.164 E8.56285
G1 X108.236 Y120.192 E8.57728
G1 X107.745 Y120.207 E8.59362
G1 X107.090 Y120.204 E8.61540
G1 X106.813 Y120.194 E8.62462
G1 X106.053 Y120.140 E8.64996
G1 X105.714 Y120.104 E8.66130
G1 X105.161 Y120.028 E8.67987
G1 X104.686 Y119.946 E8.69590
G1 X104.075 Y119.818 E8.71666
G1 X103.674 Y119.720 E8.73039
G1 X103.207 Y119.590 E8.74652
G1 X102.679 Y119.423 E8.76494
G1 X102.170 Y119.244 E8.78288
G1 X101.650 Y119.039 E8.80147
G1 X101.312 Y118.893 E8.81372
G1 X100.813 Y118.658 E8.83206
G1 X100.379 Y118.437 E8.84826
G1 X99.790 Y118.109 E8.87068
G1 X99.517 Y117.944 E8.88129
G1 X98.985 Y117.600 E8.90237
G1 X98.623 Y117.348 E8.91704
G1 X98.219 Y117.046 E8.93381
G1 X97.769 Y116.685 E8.95300
G1 X97.313 Y116.293 E8.97300
G1 X97.102 Y116.099 E8.98253
G1 X96.679 Y115.685 E9.00222
