;FLAVOR:RepRap
;TIME:20257
M104 S200.000000
M109 S200.000000
; -- START GCODE --
G21                     ;set units to millimetres
G90                     ;set to absolute positioning
M106 S0                 ;set fan speed to zero (turned off)
G28 X0 Y0               ;move to the X/Y origin (Home)
G28 Z0                  ;move to the Z origin (Home)
G1 Z15.0 F1200          ;move Z to position 15.0 mm
G92 E0                  ;zero the extruded length
G1 E20 F200             ;extrude 20mm of feed stock
G92 E0                  ;zero the extruded length again
G1 F7200                ;set feedrate to 120 mm/sec
; -- end of START GCODE --
;Generated with Cura_SteamEngine 2.1.0-
;LAYER_COUNT:55
;LAYER:0
M107
G1 F1800.000000 E-2.00000
G1 Z20.075
G0 F7200.000 X34.695 Y65.061 Z0.275
G0 X34.672 Y65.074 Z0.275
;TYPE:SKIRT
G1 Z0.200
G1 F1800.000 E0.00000
G1 F1200.00000 X34.695 Y65.061 E0.00088
G1 X35.010 Y64.897 E0.01269
G1 X35.078 Y64.864 E0.01520
G1 X35.350 Y64.742 E0.02512
G1 X35.533 Y64.667 E0.03170
G1 X35.646 Y64.624 E0.03572
G1 X35.840 Y64.556 E0.04256
G1 X36.068 Y64.484 E0.05051
G1 X36.176 Y64.453 E0.05425
G1 X36.487 Y64.374 E0.06492
G1 X36.560 Y64.358 E0.06740
G1 X36.857 Y64.301 E0.07746
G1 X36.945 Y64.287 E0.08043
G1 X37.009 Y64.278 E0.08258
G1 X37.827 Y64.201 E0.10990
G1 X38.572 Y64.189 E0.13468
G1 X41.272 Y64.181 E0.22449
G1 X45.360 Y64.195 E0.36046
G1 X169.612 Y64.195 E4.49309
G1 X174.596 Y64.183 E4.65886
G1 X176.407 Y64.190 E4.71910
G1 X177.218 Y64.205 E4.74608
G1 X177.652 Y64.236 E4.76055
G1 X177.747 Y64.247 E4.76373
G1 X178.255 Y64.324 E4.78082
G1 X178.726 Y64.428 E4.79686
G1 X178.745 Y64.432 E4.79751
G1 X178.989 Y64.502 E4.80595
G1 X179.094 Y64.535 E4.80961
G1 X179.364 Y64.629 E4.81912
G1 X179.543 Y64.697 E4.82549
G1 X179.664 Y64.747 E4.82984
G1 X179.807 Y64.811 E4.83505
G1 X180.086 Y64.945 E4.84535
G1 X180.197 Y65.003 E4.84951
G1 X180.443 Y65.140 E4.85888
G1 X180.493 Y65.170 E4.86082
G1 X180.785 Y65.356 E4.87233
G1 X180.899 Y65.433 E4.87691
G1 X181.060 Y65.550 E4.88353
G1 X181.221 Y65.674 E4.89029
G1 X181.371 Y65.796 E4.89672
G1 X181.518 Y65.923 E4.90318
G1 X181.652 Y66.045 E4.90921
G1 X181.752 Y66.142 E4.91384
G1 X181.981 Y66.377 E4.92475
G1 X182.037 Y66.438 E4.92751
G1 X182.257 Y66.693 E4.93871
G1 X182.276 Y66.716 E4.93970
G1 X182.499 Y67.006 E4.95187
G1 X182.586 Y67.128 E4.95685
G1 X182.670 Y67.251 E4.96181
G1 X182.771 Y67.409 E4.96804
G1 X182.874 Y67.580 E4.97468
G1 X182.917 Y67.656 E4.97759
G1 X183.119 Y68.042 E4.99208
G1 X183.132 Y68.069 E4.99307
G1 X183.268 Y68.375 E5.00421
G1 X183.318 Y68.496 E5.00857
G1 X183.385 Y68.672 E5.01483
G1 X183.442 Y68.835 E5.02057
G1 X183.514 Y69.065 E5.02859
G1 X183.550 Y69.190 E5.03292
G1 X183.621 Y69.471 E5.04256
G1 X183.643 Y69.569 E5.04590
G1 X183.694 Y69.830 E5.05474
G1 X183.718 Y69.979 E5.05976
G1 X183.749 Y70.212 E5.06758
G1 X183.796 Y70.881 E5.08988
G1 X183.807 Y71.156 E5.09904
G1 X183.810 Y71.391 E5.10685
G1 X183.819 Y74.360 E5.20560
G1 X183.805 Y78.566 E5.34550
G1 X183.805 Y131.383 E7.10220
G1 X183.817 Y136.480 E7.27173
G1 X183.807 Y138.477 E7.33815
G1 X183.793 Y139.225 E7.36303
G1 X183.786 Y139.380 E7.36819
G1 X183.769 Y139.605 E7.37570
G1 X183.752 Y139.772 E7.38128
G1 X183.726 Y139.969 E7.38789
G1 X183.691 Y140.191 E7.39536
G1 X183.664 Y140.331 E7.40010
G1 X183.606 Y140.595 E7.40909
G1 X183.581 Y140.695 E7.41252
G1 X183.493 Y141.006 E7.42327
G1 X183.458 Y141.116 E7.42711
G1 X183.389 Y141.316 E7.43415
G1 X183.306 Y141.534 E7.44191
G1 X183.248 Y141.676 E7.44701
G1 X183.207 Y141.768 E7.45036
G1 X183.052 Y142.091 E7.46228
G1 X183.023 Y142.148 E7.46440
G1 X182.839 Y142.477 E7.47694
G1 X182.754 Y142.618 E7.48242
G1 X182.693 Y142.714 E7.48620
G1 X182.571 Y142.893 E7.49340
G1 X182.476 Y143.025 E7.49881
G1 X182.367 Y143.168 E7.50479
G1 X182.156 Y143.428 E7.51593
G1 X182.132 Y143.456 E7.51716
G1 X181.904 Y143.704 E7.52836
G1 X181.856 Y143.754 E7.53067
G1 X181.607 Y143.996 E7.54222
G1 X181.544 Y144.054 E7.54506
G1 X181.357 Y144.215 E7.55327
G1 X181.209 Y144.336 E7.55963
G1 X181.052 Y144.457 E7.56622
G1 X180.961 Y144.523 E7.56996
G1 X180.700 Y144.700 E7.58045
G1 X180.626 Y144.748 E7.58338
G1 X180.339 Y144.920 E7.59451
G1 X180.305 Y144.939 E7.59581
G1 X179.990 Y145.103 E7.60762
G1 X179.922 Y145.136 E7.61013
G1 X179.650 Y145.258 E7.62005
G1 X179.467 Y145.333 E7.62663
G1 X179.354 Y145.376 E7.63065
G1 X179.160 Y145.444 E7.63749
G1 X178.939 Y145.514 E7.64520
G1 X178.824 Y145.547 E7.64917
G1 X178.513 Y145.626 E7.65985
G1 X178.440 Y145.642 E7.66233
G1 X178.143 Y145.699 E7.67239
G1 X178.055 Y145.713 E7.67536
G1 X177.991 Y145.722 E7.67750
G1 X177.173 Y145.799 E7.70483
G1 X176.428 Y145.811 E7.72961
G1 X173.728 Y145.819 E7.81942
G1 X169.640 Y145.805 E7.95538
G1 X45.386 Y145.805 E12.08809
G1 X40.395 Y145.817 E12.25409
G1 X38.677 Y145.811 E12.31123
G1 X38.025 Y145.799 E12.33292
G1 X37.572 Y145.775 E12.34801
G1 X37.007 Y145.721 E12.36689
G1 X36.776 Y145.684 E12.37467
G1 X36.669 Y145.664 E12.37829
G1 X36.406 Y145.606 E12.38725
G1 X36.249 Y145.566 E12.39264
G1 X36.011 Y145.498 E12.40087
G1 X35.903 Y145.464 E12.40463
G1 X35.636 Y145.371 E12.41404
G1 X35.457 Y145.303 E12.42041
G1 X35.336 Y145.253 E12.42476
G1 X35.193 Y145.189 E12.42997
G1 X34.908 Y145.052 E12.44049
G1 X34.803 Y144.997 E12.44443
G1 X34.557 Y144.860 E12.45380
G1 X34.503 Y144.828 E12.45588
G1 X34.212 Y144.642 E12.46737
G1 X34.100 Y144.566 E12.47187
G1 X33.939 Y144.449 E12.47849
G1 X33.778 Y144.325 E12.48525
G1 X33.629 Y144.204 E12.49164
G1 X33.468 Y144.065 E12.49871
G1 X33.348 Y143.955 E12.50412
G1 X33.248 Y143.858 E12.50876
G1 X33.019 Y143.623 E12.51967
G1 X32.963 Y143.562 E12.52243
G1 X32.736 Y143.299 E12.53398
G1 X32.720 Y143.279 E12.53483
G1 X32.501 Y142.994 E12.54679
G1 X32.414 Y142.872 E12.55177
G1 X32.329 Y142.747 E12.55680
G1 X32.217 Y142.572 E12.56371
G1 X32.126 Y142.420 E12.56960
G1 X32.074 Y142.327 E12.57315
G1 X31.881 Y141.958 E12.58700
G1 X31.868 Y141.931 E12.58799
G1 X31.732 Y141.625 E12.59913
G1 X31.682 Y141.504 E12.60348
G1 X31.615 Y141.328 E12.60975
G1 X31.555 Y141.155 E12.61584
G1 X31.486 Y140.935 E12.62351
G1 X31.450 Y140.810 E12.62783
G1 X31.379 Y140.529 E12.63747
G1 X31.352 Y140.409 E12.64156
G1 X31.303 Y140.150 E12.65033
G1 X31.282 Y140.021 E12.65468
G1 X31.251 Y139.788 E12.66250
G1 X31.204 Y139.119 E12.68480
G1 X31.193 Y138.844 E12.69396
G1 X31.189 Y138.487 E12.70583
G1 X31.181 Y135.640 E12.80052
G1 X31.195 Y131.434 E12.94042
G1 X31.195 Y78.617 E14.69712
G1 X31.183 Y73.411 E14.87027
G1 X31.193 Y71.513 E14.93340
G1 X31.207 Y70.775 E14.95795
G1 X31.215 Y70.605 E14.96361
G1 X31.231 Y70.390 E14.97078
G1 X31.248 Y70.224 E14.97633
G1 X31.275 Y70.024 E14.98304
G1 X31.317 Y69.765 E14.99177
G1 X31.336 Y69.669 E14.99502
G1 X31.394 Y69.404 E15.00405
G1 X31.419 Y69.305 E15.00744
G1 X31.512 Y68.977 E15.01878
G1 X31.542 Y68.884 E15.02203
G1 X31.611 Y68.684 E15.02907
G1 X31.694 Y68.466 E15.03683
G1 X31.752 Y68.324 E15.04193
G1 X31.806 Y68.204 E15.04631
G1 X31.955 Y67.896 E15.05769
G1 X31.980 Y67.847 E15.05951
G1 X32.163 Y67.520 E15.07198
G1 X32.246 Y67.382 E15.07733
G1 X32.313 Y67.277 E15.08148
G1 X32.429 Y67.107 E15.08832
G1 X32.524 Y66.975 E15.09373
G1 X32.634 Y66.831 E15.09976
G1 X32.850 Y66.565 E15.11116
G1 X32.868 Y66.544 E15.11207
G1 X33.096 Y66.295 E15.12330
G1 X33.147 Y66.243 E15.12573
G1 X33.393 Y66.004 E15.13713
G1 X33.456 Y65.946 E15.13998
G1 X33.643 Y65.785 E15.14819
G1 X33.794 Y65.662 E15.15467
G1 X33.948 Y65.543 E15.16114
G1 X34.039 Y65.477 E15.16488
G1 X34.300 Y65.300 E15.17537
G1 X34.374 Y65.252 E15.17830
G1 X34.672 Y65.074 E15.18985
G1 F1800.00000 E13.18985
G1 Z0.275
G0 F7200.000 X36.498 Y68.393 Z0.275
;TYPE:WALL-INNER
G1 Z0.200
G1 F1800.000 E15.18985
G1 F1200.00000 X36.804 Y68.239 E15.20124
G1 X37.135 Y68.119 E15.21295
G1 X37.483 Y68.036 E15.22485
G1 X37.830 Y67.996 E15.23647
G1 X38.024 Y67.990 E15.24292
G1 X177.115 Y67.995 E19.86911
G1 X177.526 Y68.037 E19.88285
G1 X177.859 Y68.116 E19.89423
G1 X178.196 Y68.239 E19.90616
G1 X178.502 Y68.393 E19.91756
G1 X178.797 Y68.588 E19.92932
G1 X179.069 Y68.816 E19.94112
G1 X179.299 Y69.059 E19.95225
G1 X179.513 Y69.348 E19.96421
G1 X179.691 Y69.654 E19.97599
G1 X179.824 Y69.967 E19.98730
G1 X179.928 Y70.311 E19.99925
G1 X179.988 Y70.648 E20.01064
G1 X180.010 Y71.024 E20.02316
G1 X180.019 Y136.090 E22.18727
G1 X180.010 Y138.976 E22.28326
G1 X179.988 Y139.352 E22.29578
G1 X179.928 Y139.689 E22.30717
G1 X179.824 Y140.033 E22.31912
G1 X179.691 Y140.346 E22.33043
G1 X179.513 Y140.652 E22.34221
G1 X179.299 Y140.941 E22.35417
G1 X179.069 Y141.184 E22.36530
G1 X178.797 Y141.412 E22.37710
G1 X178.502 Y141.607 E22.38886
G1 X178.196 Y141.761 E22.40026
G1 X177.865 Y141.881 E22.41197
G1 X177.517 Y141.964 E22.42387
G1 X177.170 Y142.004 E22.43548
G1 X176.976 Y142.010 E22.44194
G1 X40.814 Y142.019 E26.97071
G1 X38.024 Y142.010 E27.06350
G1 X37.830 Y142.004 E27.06996
G1 X37.483 Y141.964 E27.08158
G1 X37.135 Y141.881 E27.09348
G1 X36.804 Y141.761 E27.10519
G1 X36.498 Y141.607 E27.11658
G1 X36.203 Y141.412 E27.12834
G1 X35.931 Y141.184 E27.14015
G1 X35.701 Y140.941 E27.15127
G1 X35.487 Y140.652 E27.16323
G1 X35.309 Y140.346 E27.17501
G1 X35.176 Y140.033 E27.18632
G1 X35.072 Y139.689 E27.19827
G1 X35.012 Y139.352 E27.20966
G1 X34.990 Y138.976 E27.22219
G1 X34.981 Y73.910 E29.38629
G1 X34.990 Y71.024 E29.48228
G1 X35.012 Y70.648 E29.49481
G1 X35.072 Y70.311 E29.50619
G1 X35.176 Y69.967 E29.51814
G1 X35.309 Y69.654 E29.52945
G1 X35.487 Y69.348 E29.54123
G1 X35.701 Y69.059 E29.55319
G1 X35.931 Y68.816 E29.56432
G1 X36.203 Y68.588 E29.57612
G1 X36.498 Y68.393 E29.58788
G0 F7200.00000 X36.548 Y68.480
G0 X49.819 Y91.594
G0 X49.869 Y91.680
G1 F1200.000 X49.134 Y92.155 E29.61699
G1 X48.435 Y92.678 E29.64603
G1 X47.773 Y93.253 E29.67519
G1 X47.295 Y93.722 E29.69746
G1 X46.831 Y94.256 E29.72099
G1 X46.426 Y94.810 E29.74382
G1 X46.064 Y95.407 E29.76704
G1 X45.758 Y96.038 E29.79036
G1 X45.519 Y96.686 E29.81334
G1 X45.420 Y97.046 E29.82575
G1 X45.343 Y97.392 E29.83754
G1 X45.287 Y97.744 E29.84940
G1 X45.250 Y98.091 E29.86101
G1 X45.235 Y98.516 E29.87515
G1 X45.246 Y98.926 E29.88879
G1 X45.282 Y99.321 E29.90198
G1 X45.342 Y99.721 E29.91544
G1 X45.425 Y100.115 E29.92883
G1 X45.527 Y100.501 E29.94211
G1 X45.651 Y100.884 E29.95550
G1 X45.795 Y101.263 E29.96898
G1 X46.126 Y101.984 E29.99537
G1 X46.517 Y102.675 E30.02178
G1 X46.949 Y103.326 E30.04776
G1 X47.729 Y104.338 E30.09026
G1 X48.487 Y103.921 E30.11903
G1 X48.965 Y104.476 E30.14340
G1 X49.450 Y104.971 E30.16644
G1 X49.948 Y105.418 E30.18870
G1 X50.483 Y105.842 E30.21141
G1 X51.040 Y106.236 E30.23410
G1 X51.603 Y106.590 E30.25622
G1 X52.163 Y106.905 E30.27759
G1 X52.783 Y107.278 E30.30165
G1 X53.602 Y107.711 E30.33247
G1 X53.515 Y108.000 E30.34251
G1 X52.981 Y107.938 E30.36039
G1 X52.515 Y107.945 E30.37589
G1 X52.074 Y108.003 E30.39068
G1 X51.652 Y108.100 E30.40508
G1 X51.236 Y108.230 E30.41958
G1 X50.833 Y108.380 E30.43388
G1 X50.449 Y108.546 E30.44779
G1 X50.354 Y108.465 E30.45195
G1 X49.901 Y108.156 E30.47019
G1 X49.638 Y108.018 E30.48006
G1 X49.359 Y107.905 E30.49008
G1 X49.070 Y107.823 E30.50007
G1 X48.767 Y107.776 E30.51027
G1 X48.405 Y107.748 E30.52234
G1 X48.008 Y107.768 E30.53556
G1 X47.638 Y107.832 E30.54805
G1 X47.264 Y107.940 E30.56100
G1 X46.919 Y108.084 E30.57343
G1 X46.586 Y108.264 E30.58602
G1 X46.274 Y108.476 E30.59857
G1 X45.976 Y108.727 E30.61153
G1 X45.723 Y108.989 E30.62364
G1 X45.487 Y109.289 E30.63634
G1 X45.279 Y109.621 E30.64937
G1 X45.118 Y109.955 E30.66170
G1 X44.993 Y110.318 E30.67447
G1 X44.914 Y110.696 E30.68731
G1 X44.887 Y111.095 E30.70061
G1 X44.911 Y111.480 E30.71344
G1 X44.958 Y111.793 E30.72397
G1 X45.029 Y112.107 E30.73468
G1 X45.115 Y112.404 E30.74496
G1 X45.221 Y112.695 E30.75526
G1 X45.476 Y113.240 E30.77528
G1 X45.797 Y113.759 E30.79557
G1 X46.176 Y114.235 E30.81581
G1 X46.609 Y114.671 E30.83625
G1 X47.081 Y115.050 E30.85638
G1 X47.972 Y115.616 E30.89149
G1 X48.652 Y114.943 E30.92331
G1 X48.179 Y114.181 E30.95314
G1 X47.990 Y113.822 E30.96664
G1 X47.841 Y113.474 E30.97923
G1 X47.719 Y113.099 E30.99234
G1 X47.639 Y112.732 E31.00484
G1 X47.604 Y112.375 E31.01677
G1 X47.614 Y112.003 E31.02914
G1 X47.660 Y111.736 E31.03815
G1 X47.707 Y111.662 E31.04107
G1 X47.806 Y111.550 E31.04604
G1 X47.932 Y111.443 E31.05154
G1 X48.051 Y111.370 E31.05618
G1 X48.203 Y111.305 E31.06168
G1 X48.343 Y111.269 E31.06649
G1 X48.497 Y111.253 E31.07164
G1 X48.659 Y111.263 E31.07704
G1 X48.942 Y111.322 E31.08665
G1 X49.208 Y111.422 E31.09610
G1 X49.470 Y111.567 E31.10606
G1 X49.721 Y111.749 E31.11638
G1 X49.960 Y111.968 E31.12716
G1 X50.164 Y112.194 E31.13728
G1 X50.392 Y112.490 E31.14971
G1 X50.563 Y112.751 E31.16009
G1 X51.079 Y113.610 E31.19342
G1 X51.373 Y114.043 E31.21083
G1 X51.688 Y114.466 E31.22837
G1 X52.016 Y114.866 E31.24557
G1 X52.374 Y115.253 E31.26311
G1 X52.764 Y115.628 E31.28110
G1 X53.159 Y115.958 E31.29822
G1 X53.437 Y116.176 E31.30997
G1 X53.730 Y116.374 E31.32173
G1 X54.024 Y116.546 E31.33306
G1 X54.349 Y116.709 E31.34516
G1 X54.967 Y116.959 E31.36733
G1 X55.628 Y117.153 E31.39024
G1 X56.281 Y117.289 E31.41243
G1 X56.937 Y117.383 E31.43447
G1 X57.584 Y117.442 E31.45608
G1 X58.711 Y117.507 E31.49362
G1 X58.951 Y116.542 E31.52670
G1 X58.786 Y116.466 E31.53274
G1 X58.844 Y116.185 E31.54228
G1 X59.025 Y116.181 E31.54830
G1 X59.361 Y116.143 E31.55955
G1 X59.690 Y116.073 E31.57074
G1 X60.002 Y115.978 E31.58158
G1 X60.298 Y115.860 E31.59218
G1 X60.662 Y115.683 E31.60564
G1 X61.206 Y115.163 E31.63067
G1 X61.467 Y114.878 E31.64353
G1 X61.603 Y114.690 E31.65125
G1 X61.823 Y114.271 E31.66699
G1 X61.940 Y113.985 E31.67726
G1 X62.021 Y113.716 E31.68661
G1 X62.082 Y113.429 E31.69637
G1 X62.118 Y113.162 E31.70533
G1 X62.135 Y112.862 E31.71532
G1 X62.109 Y112.311 E31.73367
G1 X62.015 Y111.774 E31.75180
G1 X61.861 Y111.244 E31.77016
G1 X61.658 Y110.741 E31.78820
G1 X61.401 Y110.250 E31.80663
G1 X61.025 Y109.755 E31.82731
G1 X60.630 Y109.310 E31.84710
G1 X60.206 Y108.891 E31.86692
G1 X59.780 Y108.512 E31.88589
G1 X59.329 Y108.145 E31.90523
G1 X58.876 Y107.799 E31.92419
G1 X57.090 Y106.507 E31.99750
G1 X56.646 Y106.168 E32.01608
G1 X56.253 Y105.846 E32.03298
G1 X55.861 Y105.494 E32.05050
G1 X55.499 Y105.131 E32.06755
G1 X55.154 Y104.735 E32.08502
G1 X54.864 Y104.348 E32.10111
G1 X54.428 Y103.601 E32.12987
G1 X54.234 Y103.212 E32.14433
G1 X54.095 Y102.869 E32.15664
G1 X53.983 Y102.480 E32.17011
G1 X53.954 Y102.318 E32.17558
G1 X53.939 Y102.154 E32.18106
G1 X53.936 Y101.966 E32.18731
G1 X53.946 Y101.830 E32.19185
G1 X53.983 Y101.632 E32.19855
G1 X54.021 Y101.501 E32.20308
G1 X54.101 Y101.363 E32.20839
G1 X54.211 Y101.239 E32.21390
G1 X54.388 Y101.099 E32.22141
G1 X54.582 Y100.985 E32.22889
G1 X54.820 Y100.873 E32.23764
G1 X55.076 Y100.771 E32.24680
G1 X55.637 Y100.565 E32.26668
G1 X56.155 Y100.404 E32.28472
G1 X56.687 Y100.297 E32.30277
G1 X57.213 Y100.245 E32.32035
G1 X57.757 Y100.241 E32.33845
G1 X58.287 Y100.285 E32.35613
G1 X58.828 Y100.379 E32.37440
G1 X59.369 Y100.519 E32.39298
G1 X59.876 Y100.695 E32.41083
G1 X60.343 Y100.902 E32.42782
G1 X60.788 Y101.124 E32.44437
G1 X61.240 Y101.375 E32.46156
G1 X61.672 Y101.641 E32.47843
G1 X62.112 Y101.935 E32.49604
G1 X62.511 Y102.230 E32.51254
G1 X62.924 Y102.561 E32.53014
G1 X63.290 Y102.882 E32.54634
G1 X63.670 Y103.244 E32.56379
G1 X64.040 Y103.630 E32.58157
G1 X64.358 Y103.990 E32.59755
G1 X64.696 Y104.408 E32.61543
G1 X64.986 Y104.799 E32.63162
G1 X65.292 Y105.252 E32.64980
G1 X65.556 Y105.681 E32.66656
G1 X65.793 Y106.109 E32.68283
G1 X65.951 Y106.464 E32.69575
G1 X66.262 Y107.289 E32.72508
G1 X66.665 Y108.147 E32.75661
G1 X67.603 Y107.940 E32.78856
G1 X67.605 Y106.964 E32.82102
G1 X67.571 Y106.436 E32.83861
G1 X67.509 Y105.928 E32.85564
G1 X67.422 Y105.433 E32.87235
G1 X67.313 Y104.931 E32.88944
G1 X67.186 Y104.443 E32.90621
G1 X66.898 Y103.494 E32.93920
G1 X67.200 Y103.369 E32.95007
G1 X67.525 Y103.978 E32.97303
G1 X68.633 Y106.116 E33.05312
G1 X69.215 Y107.185 E33.09360
G1 X70.092 Y108.656 E33.15056
G1 X70.897 Y109.888 E33.19951
G1 X71.133 Y110.295 E33.21516
G1 X71.315 Y110.671 E33.22905
G1 X71.465 Y111.081 E33.24357
G1 X71.519 Y111.287 E33.25066
