;FLAVOR:RepRap
;TIME:869
M104 S200.000000
M109 S200.000000
; -- START GCODE --
G21                     ;set units to millimetres
G90                     ;set to absolute positioning
M106 S0                 ;set fan speed to zero (turned off)
G28 X0 Y0               ;move to the X/Y origin (Home)
G28 Z0                  ;move to the Z origin (Home)
G1 Z15.0 F1200          ;move Z to position 15.0 mm
G92 E0                  ;zero the extruded length
G1 E20 F200             ;extrude 20mm of feed stock
G92 E0                  ;zero the extruded length again
G1 F7200                ;set feedrate to 120 mm/sec
; -- end of START GCODE --
;Generated with Cura_SteamEngine 2.1.2
;LAYER_COUNT:149
;LAYER:0
M107
G1 F1800.000000 E-6.50000
G1 Z20.075
G0 F7200.000 X95.773 Y96.907 Z0.275
;TYPE:SKIRT
G1 Z0.200
G1 F1800.000 E0.00000
G1 F1200.00000 X95.868 Y96.817 E0.00435
G1 X96.468 Y96.303 E0.03063
G1 X97.138 Y95.840 E0.05772
G1 X97.258 Y95.766 E0.06241
G1 X97.950 Y95.386 E0.08866
G1 X98.996 Y94.969 E0.12612
G1 X99.138 Y94.924 E0.13107
G1 X99.902 Y94.724 E0.15734
G1 X100.712 Y94.599 E0.18460
G1 X100.841 Y94.586 E0.18891
G1 X101.625 Y94.547 E0.21502
G1 X113.425 Y94.550 E0.60749
G1 X114.188 Y94.588 E0.63290
G1 X114.259 Y94.595 E0.63527
G1 X115.040 Y94.712 E0.66154
G1 X115.718 Y94.881 E0.68478
G1 X115.839 Y94.917 E0.68898
G1 X116.584 Y95.180 E0.71525
G1 X117.133 Y95.432 E0.73534
G1 X117.226 Y95.479 E0.73881
G1 X117.912 Y95.870 E0.76507
G1 X118.326 Y96.154 E0.78177
G1 X118.424 Y96.226 E0.78582
G1 X119.036 Y96.725 E0.81208
G1 X119.468 Y97.148 E0.83219
G1 X119.558 Y97.243 E0.83654
G1 X120.072 Y97.843 E0.86282
G1 X120.535 Y98.513 E0.88991
G1 X120.609 Y98.633 E0.89460
G1 X120.989 Y99.325 E0.92085
G1 X121.406 Y100.371 E0.95831
G1 X121.451 Y100.513 E0.96326
G1 X121.651 Y101.277 E0.98953
G1 X121.787 Y102.206 E1.02076
G1 X121.801 Y102.370 E1.02623
G1 X121.829 Y103.058 E1.04913
G1 X121.816 Y107.155 E1.18540
G1 X121.773 Y107.943 E1.21165
G1 X121.651 Y108.723 E1.23791
G1 X121.442 Y109.515 E1.26515
G1 X121.398 Y109.652 E1.26994
G1 X121.119 Y110.391 E1.29621
G1 X120.767 Y111.097 E1.32245
G1 X120.486 Y111.557 E1.34037
G1 X120.378 Y111.721 E1.34691
G1 X119.911 Y112.358 E1.37318
G1 X119.382 Y112.944 E1.39943
G1 X119.067 Y113.242 E1.41386
G1 X118.962 Y113.336 E1.41854
G1 X118.347 Y113.833 E1.44484
G1 X117.986 Y114.081 E1.45941
G1 X117.910 Y114.130 E1.46242
G1 X117.030 Y114.620 E1.49592
G1 X116.950 Y114.658 E1.49886
G1 X116.220 Y114.960 E1.52514
G1 X115.655 Y115.137 E1.54483
G1 X115.545 Y115.167 E1.54862
G1 X114.774 Y115.336 E1.57488
G1 X114.289 Y115.401 E1.59115
G1 X114.172 Y115.413 E1.59506
G1 X113.367 Y115.454 E1.62187
G1 X101.486 Y115.441 E2.01704
G1 X100.698 Y115.400 E2.04328
G1 X99.917 Y115.280 E2.06956
G1 X99.110 Y115.067 E2.09732
G1 X98.973 Y115.023 E2.10211
G1 X98.234 Y114.744 E2.12838
G1 X97.528 Y114.392 E2.15462
G1 X97.068 Y114.111 E2.17255
G1 X96.904 Y114.003 E2.17908
G1 X96.267 Y113.536 E2.20535
G1 X95.681 Y113.007 E2.23161
G1 X95.383 Y112.692 E2.24603
G1 X95.289 Y112.587 E2.25072
G1 X94.792 Y111.972 E2.27702
G1 X94.544 Y111.611 E2.29158
G1 X94.495 Y111.535 E2.29459
G1 X94.005 Y110.655 E2.32809
G1 X93.967 Y110.575 E2.33104
G1 X93.665 Y109.845 E2.35731
G1 X93.488 Y109.280 E2.37700
G1 X93.458 Y109.170 E2.38080
G1 X93.289 Y108.399 E2.40705
G1 X93.220 Y107.874 E2.42466
G1 X93.209 Y107.761 E2.42844
G1 X93.172 Y106.999 E2.45381
G1 X93.175 Y102.946 E2.58861
G1 X93.213 Y102.187 E2.61389
G1 X93.220 Y102.116 E2.61626
G1 X93.337 Y101.335 E2.64253
G1 X93.506 Y100.657 E2.66577
G1 X93.542 Y100.536 E2.66997
G1 X93.805 Y99.791 E2.69625
G1 X94.057 Y99.242 E2.71634
G1 X94.104 Y99.149 E2.71980
G1 X94.495 Y98.463 E2.74607
G1 X94.779 Y98.049 E2.76276
G1 X94.851 Y97.951 E2.76681
G1 X95.350 Y97.339 E2.79307
G1 X95.773 Y96.907 E2.81318
G0 F7200.00000 X96.048 Y97.197
G1 F1200.000 X96.143 Y97.107 E2.81753
G1 X96.728 Y96.608 E2.84311
G1 X97.348 Y96.180 E2.86817
G1 X97.468 Y96.106 E2.87286
G1 X98.143 Y95.737 E2.89844
G1 X99.116 Y95.351 E2.93326
G1 X99.258 Y95.306 E2.93821
G1 X100.003 Y95.112 E2.96382
G1 X100.752 Y94.997 E2.98902
G1 X100.881 Y94.984 E2.99333
G1 X101.625 Y94.947 E3.01811
G1 X113.425 Y94.950 E3.41058
G1 X114.149 Y94.986 E3.43469
G1 X114.220 Y94.993 E3.43706
G1 X114.981 Y95.108 E3.46266
G1 X115.604 Y95.264 E3.48402
G1 X115.725 Y95.300 E3.48822
G1 X116.450 Y95.558 E3.51381
G1 X116.953 Y95.789 E3.53222
G1 X117.046 Y95.836 E3.53569
G1 X117.713 Y96.218 E3.56126
G1 X118.089 Y96.476 E3.57642
G1 X118.187 Y96.548 E3.58047
G1 X118.783 Y97.035 E3.60607
G1 X119.178 Y97.423 E3.62448
G1 X119.268 Y97.518 E3.62883
G1 X119.767 Y98.103 E3.65441
G1 X120.195 Y98.723 E3.67947
G1 X120.269 Y98.843 E3.68415
G1 X120.638 Y99.518 E3.70974
G1 X121.024 Y100.491 E3.74456
G1 X121.069 Y100.633 E3.74951
G1 X121.263 Y101.378 E3.77512
G1 X121.388 Y102.240 E3.80409
G1 X121.402 Y102.404 E3.80956
G1 X121.429 Y103.056 E3.83127
G1 X121.416 Y107.153 E3.96753
G1 X121.374 Y107.921 E3.99311
G1 X121.252 Y108.681 E4.01872
G1 X121.062 Y109.393 E4.04323
G1 X121.018 Y109.530 E4.04801
G1 X120.745 Y110.249 E4.07359
G1 X120.399 Y110.936 E4.09918
G1 X120.152 Y111.337 E4.11484
G1 X120.044 Y111.501 E4.12137
G1 X119.588 Y112.120 E4.14694
G1 X118.800 Y112.944 E4.18486
G1 X118.695 Y113.038 E4.18955
G1 X118.096 Y113.521 E4.21514
G1 X117.769 Y113.744 E4.22831
G1 X117.693 Y113.793 E4.23132
G1 X116.858 Y114.258 E4.26310
G1 X116.778 Y114.296 E4.26605
G1 X116.067 Y114.590 E4.29164
G1 X115.550 Y114.751 E4.30965
G1 X115.440 Y114.781 E4.31344
G1 X114.689 Y114.945 E4.33901
G1 X114.248 Y115.003 E4.35380
G1 X114.131 Y115.015 E4.35771
G1 X113.368 Y115.054 E4.38313
G1 X101.487 Y115.041 E4.77829
G1 X100.719 Y115.000 E4.80387
G1 X99.959 Y114.880 E4.82946
G1 X99.232 Y114.687 E4.85448
G1 X99.095 Y114.643 E4.85926
G1 X98.376 Y114.370 E4.88484
G1 X97.689 Y114.024 E4.91043
G1 X97.288 Y113.777 E4.92609
G1 X97.124 Y113.669 E4.93262
G1 X96.505 Y113.213 E4.95819
G1 X95.681 Y112.425 E4.99612
G1 X95.587 Y112.320 E5.00080
G1 X95.104 Y111.721 E5.02640
G1 X94.881 Y111.394 E5.03956
G1 X94.832 Y111.318 E5.04257
G1 X94.367 Y110.483 E5.07436
G1 X94.329 Y110.403 E5.07730
G1 X94.035 Y109.692 E5.10289
G1 X93.874 Y109.175 E5.12090
G1 X93.844 Y109.065 E5.12469
G1 X93.680 Y108.314 E5.15026
G1 X93.618 Y107.835 E5.16633
G1 X93.607 Y107.722 E5.17010
G1 X93.572 Y107.000 E5.19414
G1 X93.575 Y102.947 E5.32895
G1 X93.611 Y102.226 E5.35296
G1 X93.618 Y102.155 E5.35533
G1 X93.733 Y101.394 E5.38093
G1 X93.889 Y100.771 E5.40229
G1 X93.925 Y100.650 E5.40649
G1 X94.183 Y99.925 E5.43208
G1 X94.414 Y99.422 E5.45049
G1 X94.461 Y99.329 E5.45396
G1 X94.843 Y98.662 E5.47952
G1 X95.101 Y98.286 E5.49469
G1 X95.173 Y98.188 E5.49874
G1 X95.660 Y97.592 E5.52433
G1 X96.048 Y97.197 E5.54275
G0 F7200.00000 X96.323 Y97.487
G1 F1200.000 X96.418 Y97.397 E5.54710
G1 X96.988 Y96.913 E5.57197
G1 X97.558 Y96.521 E5.59498
G1 X97.678 Y96.447 E5.59967
G1 X98.335 Y96.089 E5.62456
G1 X99.237 Y95.732 E5.65682
G1 X99.379 Y95.687 E5.66178
G1 X100.104 Y95.499 E5.68669
G1 X100.792 Y95.395 E5.70983
G1 X100.921 Y95.382 E5.71414
G1 X101.625 Y95.347 E5.73759
G1 X113.425 Y95.350 E6.13006
G1 X114.110 Y95.384 E6.15287
G1 X114.181 Y95.391 E6.15524
G1 X114.920 Y95.504 E6.18011
G1 X115.490 Y95.648 E6.19966
G1 X115.611 Y95.684 E6.20386
G1 X116.316 Y95.935 E6.22875
G1 X116.772 Y96.146 E6.24546
G1 X116.865 Y96.193 E6.24893
G1 X117.514 Y96.565 E6.27381
G1 X117.853 Y96.799 E6.28751
G1 X117.951 Y96.871 E6.29155
G1 X118.529 Y97.345 E6.31641
G1 X118.888 Y97.698 E6.33316
G1 X118.978 Y97.793 E6.33751
G1 X119.462 Y98.363 E6.36238
G1 X119.854 Y98.933 E6.38539
G1 X119.928 Y99.053 E6.39008
G1 X120.286 Y99.710 E6.41497
G1 X120.643 Y100.612 E6.44723
G1 X120.688 Y100.754 E6.45219
G1 X120.876 Y101.479 E6.47710
G1 X120.990 Y102.274 E6.50381
G1 X121.004 Y102.438 E6.50928
G1 X121.029 Y103.055 E6.52982
G1 X121.016 Y107.152 E6.66609
G1 X120.974 Y107.899 E6.69097
G1 X120.852 Y108.637 E6.71585
G1 X120.681 Y109.270 E6.73766
G1 X120.637 Y109.407 E6.74245
G1 X120.370 Y110.106 E6.76733
G1 X120.031 Y110.773 E6.79222
G1 X119.818 Y111.117 E6.80568
G1 X119.710 Y111.281 E6.81221
G1 X119.266 Y111.883 E6.83709
G1 X118.533 Y112.646 E6.87228
G1 X118.428 Y112.740 E6.87697
G1 X117.552 Y113.408 E6.91361
G1 X117.476 Y113.457 E6.91661
G1 X116.686 Y113.897 E6.94669
G1 X116.606 Y113.935 E6.94964
G1 X115.915 Y114.219 E6.97448
G1 X115.445 Y114.365 E6.99085
G1 X115.335 Y114.395 E6.99464
G1 X114.604 Y114.553 E7.01952
G1 X114.207 Y114.605 E7.03284
G1 X114.090 Y114.617 E7.03675
G1 X113.368 Y114.654 E7.06079
G1 X101.487 Y114.641 E7.45596
G1 X100.740 Y114.600 E7.48084
G1 X100.002 Y114.480 E7.50571
G1 X99.355 Y114.306 E7.52799
G1 X99.218 Y114.262 E7.53278
G1 X98.519 Y113.995 E7.55767
G1 X97.852 Y113.656 E7.58255
G1 X97.508 Y113.443 E7.59601
G1 X97.344 Y113.335 E7.60254
G1 X96.742 Y112.891 E7.62742
G1 X95.979 Y112.158 E7.66261
G1 X95.885 Y112.053 E7.66730
G1 X95.217 Y111.177 E7.70394
G1 X95.168 Y111.101 E7.70694
G1 X94.728 Y110.311 E7.73702
G1 X94.690 Y110.231 E7.73997
G1 X94.406 Y109.540 E7.76481
G1 X94.260 Y109.070 E7.78118
G1 X94.230 Y108.960 E7.78498
G1 X94.072 Y108.229 E7.80985
G1 X94.016 Y107.796 E7.82437
G1 X94.005 Y107.683 E7.82815
G1 X93.972 Y107.000 E7.85089
G1 X93.975 Y102.947 E7.98569
G1 X94.009 Y102.265 E8.00841
G1 X94.016 Y102.194 E8.01078
G1 X94.129 Y101.455 E8.03564
G1 X94.273 Y100.885 E8.05520
G1 X94.309 Y100.764 E8.05940
G1 X94.560 Y100.059 E8.08429
G1 X94.771 Y99.603 E8.10100
G1 X94.818 Y99.510 E8.10446
G1 X95.190 Y98.861 E8.12935
G1 X95.424 Y98.522 E8.14305
G1 X95.496 Y98.424 E8.14709
G1 X95.970 Y97.846 E8.17195
G1 X96.323 Y97.487 E8.18870
G0 F7200.00000 X96.598 Y97.778
G1 F1200.000 X96.693 Y97.688 E8.19305
G1 X97.247 Y97.218 E8.21721
G1 X97.768 Y96.861 E8.23822
G1 X97.888 Y96.787 E8.24291
G1 X98.526 Y96.441 E8.26705
G1 X99.358 Y96.113 E8.29679
G1 X99.500 Y96.068 E8.30175
G1 X100.204 Y95.887 E8.32593
G1 X100.832 Y95.793 E8.34705
G1 X100.961 Y95.780 E8.35136
G1 X101.625 Y95.747 E8.37347
G1 X113.425 Y95.750 E8.76594
G1 X114.071 Y95.782 E8.78745
G1 X114.142 Y95.789 E8.78982
G1 X114.859 Y95.900 E8.81396
G1 X115.376 Y96.031 E8.83170
G1 X115.497 Y96.067 E8.83589
G1 X116.181 Y96.312 E8.86006
G1 X116.592 Y96.503 E8.87513
G1 X116.685 Y96.550 E8.87860
G1 X117.314 Y96.912 E8.90274
G1 X117.616 Y97.121 E8.91495
G1 X117.714 Y97.193 E8.91900
G1 X118.275 Y97.655 E8.94317
G1 X118.597 Y97.973 E8.95822
G1 X118.687 Y98.068 E8.96257
G1 X119.157 Y98.622 E8.98674
G1 X119.514 Y99.143 E9.00774
G1 X119.588 Y99.263 E9.01243
G1 X119.934 Y99.901 E9.03657
G1 X120.262 Y100.733 E9.06632
G1 X120.307 Y100.875 E9.07127
G1 X120.488 Y101.579 E9.09545
G1 X120.591 Y102.308 E9.11994
G1 X120.605 Y102.472 E9.12541
G1 X120.629 Y103.054 E9.14478
G1 X120.616 Y107.151 E9.28105
G1 X120.574 Y107.876 E9.30521
G1 X120.452 Y108.592 E9.32936
G1 X120.300 Y109.148 E9.34853
G1 X120.256 Y109.285 E9.35332
G1 X119.996 Y109.963 E9.37747
G1 X119.484 Y110.897 E9.41290
G1 X119.376 Y111.061 E9.41943
G1 X118.944 Y111.645 E9.44359
G1 X118.266 Y112.348 E9.47607
G1 X118.161 Y112.442 E9.48076
G1 X117.335 Y113.072 E9.51531
G1 X117.259 Y113.121 E9.51832
G1 X116.515 Y113.536 E9.54666
G1 X116.435 Y113.574 E9.54960
G1 X115.763 Y113.849 E9.57375
G1 X115.340 Y113.979 E9.58847
G1 X115.230 Y114.009 E9.59226
G1 X114.166 Y114.208 E9.62826
G1 X114.049 Y114.220 E9.63218
G1 X113.369 Y114.254 E9.65482
G1 X101.488 Y114.241 E10.04999
G1 X100.763 Y114.200 E10.07414
G1 X100.046 Y114.080 E10.09832
G1 X99.477 Y113.925 E10.11793
G1 X99.340 Y113.881 E10.12272
G1 X98.662 Y113.621 E10.14687
G1 X97.728 Y113.109 E10.18230
G1 X97.564 Y113.001 E10.18883
G1 X96.980 Y112.569 E10.21299
G1 X96.277 Y111.891 E10.24547
G1 X96.183 Y111.786 E10.25016
G1 X95.553 Y110.960 E10.28471
G1 X95.504 Y110.884 E10.28772
G1 X95.089 Y110.140 E10.31605
G1 X95.051 Y110.060 E10.31900
G1 X94.776 Y109.388 E10.34315
G1 X94.646 Y108.965 E10.35787
G1 X94.616 Y108.855 E10.36166
G1 X94.463 Y108.144 E10.38585
G1 X94.414 Y107.757 E10.39882
G1 X94.403 Y107.644 E10.40260
G1 X94.372 Y107.000 E10.42404
G1 X94.375 Y102.947 E10.55885
G1 X94.407 Y102.304 E10.58026
G1 X94.414 Y102.233 E10.58263
G1 X94.525 Y101.516 E10.60676
G1 X94.656 Y100.999 E10.62450
G1 X94.692 Y100.878 E10.62870
G1 X94.937 Y100.194 E10.65287
G1 X95.128 Y99.783 E10.66794
G1 X95.175 Y99.690 E10.67141
G1 X95.537 Y99.061 E10.69555
G1 X95.746 Y98.759 E10.70776
G1 X95.818 Y98.661 E10.71181
G1 X96.280 Y98.100 E10.73598
G1 X96.598 Y97.778 E10.75103
G0 F7200.00000 X96.873 Y98.068
G1 F1200.000 X96.968 Y97.978 E10.75538
G1 X97.506 Y97.524 E10.77880
G1 X97.978 Y97.202 E10.79780
G1 X98.098 Y97.128 E10.80249
G1 X98.717 Y96.793 E10.82590
G1 X99.479 Y96.495 E10.85311
G1 X99.621 Y96.450 E10.85807
G1 X100.303 Y96.275 E10.88148
G1 X100.872 Y96.191 E10.90061
G1 X101.001 Y96.178 E10.90493
G1 X101.625 Y96.147 E10.92571
G1 X113.425 Y96.150 E11.31818
G1 X114.031 Y96.180 E11.33836
G1 X114.102 Y96.187 E11.34073
G1 X114.798 Y96.296 E11.36416
G1 X115.262 Y96.414 E11.38008
G1 X115.383 Y96.450 E11.38428
G1 X116.045 Y96.689 E11.40769
G1 X116.411 Y96.860 E11.42113
G1 X116.504 Y96.907 E11.42459
G1 X117.379 Y97.444 E11.45874
G1 X117.477 Y97.516 E11.46279
G1 X118.020 Y97.964 E11.48620
G1 X118.307 Y98.248 E11.49963
G1 X118.397 Y98.343 E11.50398
G1 X118.851 Y98.881 E11.52739
G1 X119.173 Y99.353 E11.54640
G1 X119.247 Y99.473 E11.55109
G1 X119.582 Y100.092 E11.57450
G1 X119.880 Y100.854 E11.60171
G1 X119.925 Y100.996 E11.60667
G1 X120.100 Y101.678 E11.63008
G1 X120.193 Y102.342 E11.65238
G1 X120.207 Y102.506 E11.65786
G1 X120.229 Y103.053 E11.67607
G1 X120.216 Y107.150 E11.81233
G1 X120.174 Y107.852 E11.83572
G1 X120.052 Y108.546 E11.85916
G1 X119.919 Y109.026 E11.87573
G1 X119.875 Y109.163 E11.88051
G1 X119.622 Y109.820 E11.90393
G1 X119.150 Y110.677 E11.93647
G1 X119.042 Y110.841 E11.94300
G1 X118.622 Y111.406 E11.96642
G1 X117.999 Y112.050 E11.99622
G1 X117.894 Y112.144 E12.00091
G1 X117.119 Y112.736 E12.03334
G1 X117.043 Y112.785 E12.03635
G1 X116.343 Y113.174 E12.06299
G1 X116.263 Y113.212 E12.06593
G1 X115.611 Y113.478 E12.08935
G1 X115.234 Y113.594 E12.10247
G1 X115.124 Y113.624 E12.10626
G1 X114.126 Y113.810 E12.14003
G1 X114.009 Y113.822 E12.14394
G1 X113.369 Y113.854 E12.16525
G1 X101.488 Y113.841 E12.56042
G1 X100.785 Y113.800 E12.58384
G1 X100.092 Y113.680 E12.60723
G1 X99.599 Y113.544 E12.62424
G1 X99.462 Y113.500 E12.62903
G1 X98.805 Y113.247 E12.65244
G1 X97.948 Y112.775 E12.68498
G1 X97.784 Y112.667 E12.69152
G1 X97.219 Y112.247 E12.71493
G1 X96.575 Y111.624 E12.74473
G1 X96.481 Y111.519 E12.74942
G1 X95.889 Y110.744 E12.78186
G1 X95.840 Y110.668 E12.78486
G1 X95.451 Y109.968 E12.81150
G1 X95.413 Y109.888 E12.81445
G1 X95.147 Y109.236 E12.83787
G1 X95.031 Y108.859 E12.85099
G1 X95.001 Y108.749 E12.85478
G1 X94.812 Y107.719 E12.88961
G1 X94.801 Y107.606 E12.89338
G1 X94.772 Y107.000 E12.91356
G1 X94.775 Y102.947 E13.04837
G1 X94.805 Y102.344 E13.06845
G1 X94.812 Y102.273 E13.07082
G1 X94.921 Y101.577 E13.09425
G1 X95.039 Y101.113 E13.11017
G1 X95.075 Y100.992 E13.11437
G1 X95.314 Y100.330 E13.13778
G1 X95.485 Y99.964 E13.15122
G1 X95.532 Y99.871 E13.15469
G1 X96.069 Y98.996 E13.18883
G1 X96.141 Y98.898 E13.19288
G1 X96.589 Y98.355 E13.21629
G1 X96.873 Y98.068 E13.22972
G0 F7200.00000 X97.148 Y98.358
G1 F1200.000 X97.243 Y98.268 E13.23407
G1 X97.764 Y97.830 E13.25671
G1 X98.188 Y97.542 E13.27376
G1 X98.308 Y97.468 E13.27845
G1 X98.907 Y97.145 E13.30108
G1 X99.600 Y96.876 E13.32581
G1 X99.742 Y96.831 E13.33076
G1 X100.402 Y96.664 E13.35340
G1 X100.912 Y96.589 E13.37055
G1 X101.041 Y96.576 E13.37486
G1 X101.624 Y96.547 E13.39428
G1 X113.424 Y96.550 E13.78675
G1 X113.992 Y96.578 E13.80566
G1 X114.063 Y96.585 E13.80803
G1 X114.736 Y96.691 E13.83069
G1 X115.148 Y96.798 E13.84485
G1 X115.269 Y96.834 E13.84905
G1 X115.909 Y97.066 E13.87169
G1 X116.231 Y97.217 E13.88352
G1 X116.324 Y97.264 E13.88699
G1 X117.142 Y97.766 E13.91891
G1 X117.240 Y97.838 E13.92295
G1 X117.764 Y98.273 E13.94560
G1 X118.017 Y98.523 E13.95743
G1 X118.107 Y98.618 E13.96179
G1 X118.545 Y99.139 E13.98443
G1 X118.833 Y99.563 E14.00147
G1 X118.907 Y99.683 E14.00616
G1 X119.230 Y100.282 E14.02880
G1 X119.499 Y100.975 E14.05352
