;FLAVOR:RepRap
;TIME:999
M104 S200.000000
M109 S200.000000
; -- START GCODE --
G21                     ;set units to millimetres
G90                     ;set to absolute positioning
M106 S0                 ;set fan speed to zero (turned off)
G28 X0 Y0               ;move to the X/Y origin (Home)
G28 Z0                  ;move to the Z origin (Home)
G1 Z15.0 F1200          ;move Z to position 15.0 mm
G92 E0                  ;zero the extruded length
G1 E20 F200             ;extrude 20mm of feed stock
G92 E0                  ;zero the extruded length again
G1 F7200                ;set feedrate to 120 mm/sec
; -- end of START GCODE --
;Generated with Cura_SteamEngine 2.1.0-
;LAYER_COUNT:73
;LAYER:0
M107
G1 F1800.000000 E-2.00000
G1 Z20.075
G0 F7200.000 X91.093 Y95.809 Z0.275
;TYPE:SKIRT
G1 Z0.200
G1 F1800.000 E0.00000
G1 F1200.00000 X91.537 Y95.399 E0.02010
G1 X92.022 Y94.993 E0.04114
G1 X92.215 Y94.842 E0.04929
G1 X92.542 Y94.599 E0.06284
G1 X93.051 Y94.253 E0.08331
G1 X93.590 Y93.923 E0.10433
G1 X94.142 Y93.622 E0.12524
G1 X94.682 Y93.360 E0.14520
G1 X94.906 Y93.260 E0.15336
G1 X95.288 Y93.101 E0.16712
G1 X95.868 Y92.888 E0.18768
G1 X96.455 Y92.703 E0.20815
G1 X96.692 Y92.637 E0.21633
G1 X97.096 Y92.536 E0.23018
G1 X97.690 Y92.413 E0.25035
G1 X98.310 Y92.315 E0.27123
G1 X98.937 Y92.247 E0.29221
G1 X99.575 Y92.210 E0.31346
G1 X100.103 Y92.200 E0.33103
G1 X115.194 Y92.202 E0.83296
G1 X115.813 Y92.227 E0.85356
G1 X116.442 Y92.283 E0.87457
G1 X117.057 Y92.368 E0.89521
G1 X117.661 Y92.481 E0.91565
G1 X117.900 Y92.534 E0.92379
G1 X118.304 Y92.635 E0.93765
G1 X118.895 Y92.809 E0.95814
G1 X119.451 Y93.000 E0.97769
G1 X119.680 Y93.087 E0.98584
G1 X120.090 Y93.257 E1.00060
G1 X120.635 Y93.509 E1.02057
G1 X121.192 Y93.799 E1.04146
G1 X121.738 Y94.119 E1.06251
G1 X122.253 Y94.455 E1.08296
G1 X122.454 Y94.596 E1.09112
G1 X122.781 Y94.839 E1.10467
G1 X123.257 Y95.222 E1.12500
G1 X123.726 Y95.637 E1.14582
G1 X123.904 Y95.806 E1.15399
G1 X124.190 Y96.092 E1.16744
G1 X124.600 Y96.536 E1.18754
G1 X125.006 Y97.021 E1.20858
G1 X125.157 Y97.214 E1.21673
G1 X125.400 Y97.541 E1.23028
G1 X125.737 Y98.035 E1.25017
G1 X125.868 Y98.241 E1.25829
G1 X126.076 Y98.588 E1.27174
G1 X126.364 Y99.115 E1.29172
G1 X126.640 Y99.680 E1.31263
G1 X126.740 Y99.904 E1.32079
G1 X126.899 Y100.286 E1.33455
G1 X127.112 Y100.866 E1.35510
G1 X127.297 Y101.453 E1.37558
G1 X127.363 Y101.690 E1.38376
G1 X127.464 Y102.094 E1.39761
G1 X127.587 Y102.688 E1.41778
G1 X127.686 Y103.312 E1.43880
G1 X127.753 Y103.936 E1.45967
G1 X127.789 Y104.530 E1.47946
G1 X127.797 Y105.157 E1.50032
G1 X127.792 Y105.402 E1.50847
G1 X127.773 Y105.815 E1.52222
G1 X127.717 Y106.444 E1.54322
G1 X127.631 Y107.065 E1.56408
G1 X127.519 Y107.662 E1.58428
G1 X127.466 Y107.901 E1.59242
G1 X127.365 Y108.305 E1.60627
G1 X127.191 Y108.896 E1.62676
G1 X126.989 Y109.480 E1.64732
G1 X126.901 Y109.709 E1.65548
G1 X126.742 Y110.091 E1.66924
G1 X126.490 Y110.636 E1.68921
G1 X126.200 Y111.193 E1.71010
G1 X125.880 Y111.739 E1.73114
G1 X125.544 Y112.254 E1.75160
G1 X125.403 Y112.455 E1.75976
G1 X125.160 Y112.782 E1.77331
G1 X124.777 Y113.258 E1.79363
G1 X124.362 Y113.727 E1.81446
G1 X124.193 Y113.905 E1.82263
G1 X123.907 Y114.191 E1.83608
G1 X123.463 Y114.601 E1.85618
G1 X122.978 Y115.007 E1.87722
G1 X122.785 Y115.158 E1.88537
G1 X122.458 Y115.401 E1.89892
G1 X121.949 Y115.747 E1.91939
G1 X121.410 Y116.077 E1.94041
G1 X120.858 Y116.378 E1.96132
G1 X120.318 Y116.640 E1.98128
G1 X120.094 Y116.740 E1.98944
G1 X119.712 Y116.899 E2.00320
G1 X119.132 Y117.112 E2.02375
G1 X118.545 Y117.297 E2.04422
G1 X118.308 Y117.363 E2.05241
G1 X117.904 Y117.464 E2.06626
G1 X117.310 Y117.587 E2.08643
G1 X116.690 Y117.685 E2.10731
G1 X116.063 Y117.753 E2.12829
G1 X115.425 Y117.790 E2.14954
G1 X114.897 Y117.800 E2.16711
G1 X99.806 Y117.798 E2.66904
G1 X99.187 Y117.773 E2.68964
G1 X98.558 Y117.717 E2.71064
G1 X97.943 Y117.632 E2.73129
G1 X97.339 Y117.519 E2.75173
G1 X97.100 Y117.466 E2.75987
G1 X96.696 Y117.365 E2.77372
G1 X96.105 Y117.191 E2.79421
G1 X95.549 Y117.000 E2.81377
G1 X95.320 Y116.913 E2.82192
G1 X94.910 Y116.743 E2.83668
G1 X94.365 Y116.491 E2.85665
G1 X93.808 Y116.201 E2.87754
G1 X93.262 Y115.881 E2.89858
G1 X92.747 Y115.545 E2.91904
G1 X92.546 Y115.404 E2.92720
G1 X92.219 Y115.161 E2.94075
G1 X91.743 Y114.778 E2.96107
G1 X91.274 Y114.363 E2.98190
G1 X91.096 Y114.194 E2.99007
G1 X90.810 Y113.908 E3.00352
G1 X90.400 Y113.464 E3.02362
G1 X89.994 Y112.979 E3.04466
G1 X89.843 Y112.786 E3.05281
G1 X89.600 Y112.459 E3.06636
G1 X89.263 Y111.965 E3.08625
G1 X89.132 Y111.759 E3.09437
G1 X88.924 Y111.412 E3.10782
G1 X88.636 Y110.885 E3.12780
G1 X88.360 Y110.320 E3.14871
G1 X88.260 Y110.096 E3.15687
G1 X88.101 Y109.714 E3.17063
G1 X87.888 Y109.134 E3.19118
G1 X87.703 Y108.547 E3.21165
G1 X87.637 Y108.310 E3.21984
G1 X87.536 Y107.906 E3.23369
G1 X87.413 Y107.312 E3.25386
G1 X87.314 Y106.688 E3.27488
G1 X87.247 Y106.064 E3.29575
G1 X87.211 Y105.470 E3.31554
G1 X87.203 Y104.843 E3.33640
G1 X87.208 Y104.598 E3.34455
G1 X87.227 Y104.185 E3.35830
G1 X87.283 Y103.556 E3.37930
G1 X87.369 Y102.935 E3.40016
G1 X87.481 Y102.338 E3.42036
G1 X87.534 Y102.099 E3.42850
G1 X87.635 Y101.695 E3.44235
G1 X87.809 Y101.104 E3.46284
G1 X88.011 Y100.520 E3.48339
G1 X88.099 Y100.291 E3.49155
G1 X88.258 Y99.909 E3.50532
G1 X88.510 Y99.364 E3.52529
G1 X88.800 Y98.807 E3.54617
G1 X89.120 Y98.261 E3.56722
G1 X89.456 Y97.746 E3.58767
G1 X89.597 Y97.545 E3.59584
G1 X89.840 Y97.218 E3.60939
G1 X90.223 Y96.742 E3.62971
G1 X90.638 Y96.273 E3.65054
G1 X90.807 Y96.095 E3.65870
G1 X91.093 Y95.809 E3.67216
G0 F7200.00000 X91.369 Y96.099
G1 F1200.000 X91.799 Y95.702 E3.69162
G1 X92.268 Y95.308 E3.71200
G1 X92.461 Y95.157 E3.72015
G1 X92.771 Y94.927 E3.73298
G1 X93.265 Y94.591 E3.75286
G1 X93.787 Y94.271 E3.77322
G1 X94.322 Y93.979 E3.79349
G1 X94.845 Y93.725 E3.81283
G1 X95.069 Y93.625 E3.82099
G1 X95.432 Y93.474 E3.83406
G1 X95.993 Y93.268 E3.85394
G1 X96.563 Y93.088 E3.87382
G1 X96.800 Y93.022 E3.88201
G1 X97.183 Y92.927 E3.89513
G1 X97.759 Y92.807 E3.91470
G1 X98.359 Y92.712 E3.93490
G1 X98.967 Y92.646 E3.95525
G1 X99.584 Y92.610 E3.97580
G1 X100.103 Y92.600 E3.99307
G1 X115.184 Y92.602 E4.49466
G1 X115.783 Y92.626 E4.51460
G1 X116.393 Y92.680 E4.53497
G1 X116.989 Y92.762 E4.55498
G1 X117.574 Y92.872 E4.57478
G1 X117.813 Y92.925 E4.58292
G1 X118.196 Y93.020 E4.59604
G1 X118.770 Y93.189 E4.61595
G1 X119.309 Y93.374 E4.63490
G1 X119.538 Y93.461 E4.64305
G1 X119.927 Y93.622 E4.65705
G1 X120.455 Y93.866 E4.67640
G1 X120.995 Y94.147 E4.69664
G1 X121.524 Y94.457 E4.71704
G1 X122.024 Y94.783 E4.73689
G1 X122.225 Y94.924 E4.74505
G1 X122.535 Y95.154 E4.75789
G1 X122.996 Y95.525 E4.77757
G1 X123.450 Y95.927 E4.79774
G1 X123.900 Y96.368 E4.81870
G1 X124.297 Y96.798 E4.83817
G1 X124.691 Y97.267 E4.85854
G1 X124.842 Y97.460 E4.86669
G1 X125.072 Y97.770 E4.87953
G1 X125.399 Y98.250 E4.89884
G1 X125.728 Y98.785 E4.91973
G1 X126.008 Y99.296 E4.93911
G1 X126.275 Y99.843 E4.95936
G1 X126.375 Y100.067 E4.96752
G1 X126.526 Y100.430 E4.98059
G1 X126.732 Y100.991 E5.00047
G1 X126.912 Y101.561 E5.02035
G1 X126.978 Y101.798 E5.02854
G1 X127.073 Y102.181 E5.04166
G1 X127.193 Y102.757 E5.06123
G1 X127.289 Y103.361 E5.08157
G1 X127.354 Y103.966 E5.10181
G1 X127.389 Y104.542 E5.12100
G1 X127.397 Y105.149 E5.14119
G1 X127.392 Y105.394 E5.14934
G1 X127.374 Y105.785 E5.16236
G1 X127.320 Y106.395 E5.18273
G1 X127.237 Y106.996 E5.20291
G1 X127.128 Y107.575 E5.22250
G1 X127.075 Y107.814 E5.23065
G1 X126.980 Y108.197 E5.24377
G1 X126.811 Y108.771 E5.26367
G1 X126.616 Y109.336 E5.28355
G1 X126.528 Y109.565 E5.29171
G1 X126.377 Y109.928 E5.30479
G1 X126.133 Y110.456 E5.32413
G1 X125.852 Y110.996 E5.34438
G1 X125.542 Y111.525 E5.36477
G1 X125.216 Y112.025 E5.38463
G1 X125.075 Y112.226 E5.39279
G1 X124.845 Y112.536 E5.40563
G1 X124.474 Y112.997 E5.42531
G1 X124.072 Y113.451 E5.44548
G1 X123.631 Y113.901 E5.46644
G1 X123.201 Y114.298 E5.48590
G1 X122.732 Y114.692 E5.50628
G1 X122.539 Y114.843 E5.51443
G1 X122.229 Y115.073 E5.52727
G1 X121.735 Y115.409 E5.54714
G1 X121.213 Y115.729 E5.56750
G1 X120.678 Y116.021 E5.58777
G1 X120.155 Y116.275 E5.60711
G1 X119.931 Y116.375 E5.61527
G1 X119.568 Y116.526 E5.62835
G1 X119.007 Y116.732 E5.64822
G1 X118.437 Y116.912 E5.66810
G1 X118.200 Y116.978 E5.67629
G1 X117.817 Y117.073 E5.68941
G1 X117.241 Y117.193 E5.70898
G1 X116.641 Y117.288 E5.72919
G1 X116.033 Y117.354 E5.74953
G1 X115.416 Y117.390 E5.77008
G1 X114.897 Y117.400 E5.78735
G1 X99.816 Y117.398 E6.28894
G1 X99.217 Y117.374 E6.30888
G1 X98.607 Y117.320 E6.32925
G1 X98.011 Y117.238 E6.34926
G1 X97.426 Y117.128 E6.36906
G1 X97.187 Y117.075 E6.37720
G1 X96.804 Y116.980 E6.39033
G1 X96.230 Y116.811 E6.41023
G1 X95.691 Y116.626 E6.42918
G1 X95.462 Y116.539 E6.43733
G1 X95.073 Y116.378 E6.45133
G1 X94.545 Y116.134 E6.47068
G1 X94.005 Y115.853 E6.49092
G1 X93.476 Y115.543 E6.51132
G1 X92.976 Y115.217 E6.53117
G1 X92.775 Y115.076 E6.53934
G1 X92.465 Y114.846 E6.55217
G1 X92.004 Y114.475 E6.57186
G1 X91.550 Y114.073 E6.59202
G1 X91.100 Y113.632 E6.61298
G1 X90.703 Y113.202 E6.63245
G1 X90.309 Y112.733 E6.65282
G1 X90.158 Y112.540 E6.66097
G1 X89.928 Y112.230 E6.67381
G1 X89.601 Y111.750 E6.69313
G1 X89.272 Y111.215 E6.71401
G1 X88.992 Y110.704 E6.73340
G1 X88.725 Y110.157 E6.75364
G1 X88.625 Y109.933 E6.76180
G1 X88.474 Y109.570 E6.77488
G1 X88.268 Y109.009 E6.79475
G1 X88.088 Y108.439 E6.81463
G1 X88.022 Y108.202 E6.82282
G1 X87.927 Y107.819 E6.83594
G1 X87.807 Y107.243 E6.85551
G1 X87.711 Y106.639 E6.87585
G1 X87.646 Y106.034 E6.89609
G1 X87.611 Y105.458 E6.91528
G1 X87.603 Y104.851 E6.93547
G1 X87.608 Y104.606 E6.94362
G1 X87.626 Y104.215 E6.95664
G1 X87.680 Y103.605 E6.97701
G1 X87.763 Y103.004 E6.99719
G1 X87.872 Y102.425 E7.01679
G1 X87.925 Y102.186 E7.02493
G1 X88.020 Y101.803 E7.03805
G1 X88.189 Y101.229 E7.05795
G1 X88.384 Y100.664 E7.07783
G1 X88.472 Y100.435 E7.08599
G1 X88.623 Y100.072 E7.09907
G1 X88.867 Y99.544 E7.11842
G1 X89.148 Y99.004 E7.13866
G1 X89.458 Y98.475 E7.15906
G1 X89.784 Y97.975 E7.17891
G1 X89.925 Y97.774 E7.18707
G1 X90.155 Y97.464 E7.19991
G1 X90.526 Y97.003 E7.21959
G1 X90.928 Y96.549 E7.23976
G1 X91.369 Y96.099 E7.26072
G0 F7200.00000 X91.644 Y96.390
G1 F1200.000 X92.061 Y96.004 E7.27962
G1 X92.515 Y95.623 E7.29933
G1 X93.001 Y95.254 E7.31963
G1 X93.479 Y94.929 E7.33885
G1 X93.984 Y94.620 E7.35854
G1 X94.501 Y94.337 E7.37815
G1 X95.008 Y94.090 E7.39690
G1 X95.575 Y93.848 E7.41741
G1 X96.119 Y93.648 E7.43669
G1 X96.670 Y93.474 E7.45590
G1 X97.270 Y93.317 E7.47653
G1 X97.827 Y93.201 E7.49546
G1 X98.408 Y93.109 E7.51502
G1 X98.996 Y93.045 E7.53469
G1 X99.594 Y93.010 E7.55462
G1 X100.103 Y93.000 E7.57155
G1 X115.174 Y93.002 E8.07281
G1 X115.754 Y93.025 E8.09212
G1 X116.344 Y93.077 E8.11182
G1 X116.921 Y93.156 E8.13119
G1 X117.487 Y93.262 E8.15034
G1 X118.089 Y93.406 E8.17093
G1 X118.644 Y93.569 E8.19017
G1 X119.167 Y93.748 E8.20855
G1 X119.396 Y93.835 E8.21670
G1 X119.764 Y93.987 E8.22994
G1 X120.276 Y94.224 E8.24871
G1 X120.798 Y94.496 E8.26829
G1 X121.310 Y94.795 E8.28801
G1 X121.794 Y95.110 E8.30721
G1 X122.288 Y95.469 E8.32752
G1 X122.735 Y95.828 E8.34659
G1 X123.175 Y96.218 E8.36615
G1 X123.609 Y96.643 E8.38635
G1 X123.995 Y97.060 E8.40525
G1 X124.376 Y97.514 E8.42496
G1 X124.745 Y98.000 E8.44526
G1 X125.062 Y98.465 E8.46398
G1 X125.379 Y98.982 E8.48415
G1 X125.651 Y99.476 E8.50290
G1 X125.910 Y100.006 E8.52252
G1 X126.152 Y100.573 E8.54303
G1 X126.352 Y101.117 E8.56231
G1 X126.526 Y101.668 E8.58153
G1 X126.683 Y102.268 E8.60215
G1 X126.799 Y102.825 E8.62108
G1 X126.892 Y103.410 E8.64078
G1 X126.955 Y103.995 E8.66035
G1 X126.989 Y104.553 E8.67894
G1 X126.998 Y105.141 E8.69850
G1 X126.975 Y105.756 E8.71897
G1 X126.923 Y106.346 E8.73867
G1 X126.843 Y106.928 E8.75821
G1 X126.738 Y107.488 E8.77716
G1 X126.594 Y108.090 E8.79775
G1 X126.431 Y108.645 E8.81699
G1 X126.242 Y109.193 E8.83627
G1 X126.012 Y109.765 E8.85677
G1 X125.775 Y110.277 E8.87554
G1 X125.503 Y110.799 E8.89511
G1 X125.204 Y111.311 E8.91483
G1 X124.889 Y111.795 E8.93404
G1 X124.530 Y112.289 E8.95435
G1 X124.171 Y112.736 E8.97342
G1 X123.781 Y113.176 E8.99298
G1 X123.356 Y113.610 E9.01318
G1 X122.939 Y113.996 E9.03208
G1 X122.485 Y114.377 E9.05179
G1 X121.999 Y114.746 E9.07209
G1 X121.521 Y115.071 E9.09131
G1 X121.016 Y115.380 E9.11100
G1 X120.499 Y115.663 E9.13061
G1 X119.992 Y115.910 E9.14936
G1 X119.425 Y116.152 E9.16987
G1 X118.881 Y116.352 E9.18915
G1 X118.330 Y116.526 E9.20836
G1 X117.730 Y116.683 E9.22899
G1 X117.173 Y116.799 E9.24792
G1 X116.592 Y116.891 E9.26748
G1 X116.004 Y116.955 E9.28715
G1 X115.406 Y116.990 E9.30708
G1 X114.897 Y117.000 E9.32401
G1 X99.826 Y116.998 E9.82527
G1 X99.246 Y116.975 E9.84458
G1 X98.656 Y116.923 E9.86428
G1 X98.079 Y116.844 E9.88365
G1 X97.513 Y116.738 E9.90280
G1 X96.911 Y116.594 E9.92339
G1 X96.356 Y116.431 E9.94263
G1 X95.833 Y116.252 E9.96101
G1 X95.604 Y116.165 E9.96916
G1 X95.236 Y116.013 E9.98240
G1 X94.724 Y115.776 E10.00117
G1 X94.202 Y115.504 E10.02075
G1 X93.690 Y115.205 E10.04047
G1 X93.206 Y114.890 E10.05967
G1 X92.712 Y114.531 E10.07998
G1 X92.265 Y114.172 E10.09905
G1 X91.825 Y113.782 E10.11861
G1 X91.391 Y113.357 E10.13881
G1 X91.005 Y112.940 E10.15771
G1 X90.624 Y112.486 E10.17742
G1 X90.255 Y112.000 E10.19772
G1 X89.938 Y111.535 E10.21644
G1 X89.621 Y111.018 E10.23661
G1 X89.349 Y110.524 E10.25537
G1 X89.090 Y109.994 E10.27499
G1 X88.848 Y109.427 E10.29549
G1 X88.648 Y108.883 E10.31477
G1 X88.474 Y108.332 E10.33399
G1 X88.317 Y107.732 E10.35461
G1 X88.201 Y107.175 E10.37354
G1 X88.108 Y106.590 E10.39324
G1 X88.045 Y106.005 E10.41281
G1 X88.011 Y105.447 E10.43140
G1 X88.002 Y104.859 E10.45096
G1 X88.025 Y104.244 E10.47143
G1 X88.077 Y103.654 E10.49113
G1 X88.157 Y103.072 E10.51067
G1 X88.262 Y102.512 E10.52962
G1 X88.406 Y101.910 E10.55021
G1 X88.569 Y101.355 E10.56945
G1 X88.758 Y100.807 E10.58873
G1 X88.988 Y100.235 E10.60923
G1 X89.225 Y99.723 E10.62800
G1 X89.497 Y99.201 E10.64757
G1 X89.796 Y98.689 E10.66729
G1 X90.111 Y98.205 E10.68650
G1 X90.470 Y97.711 E10.70681
G1 X90.829 Y97.264 E10.72588
G1 X91.219 Y96.824 E10.74544
G1 X91.644 Y96.390 E10.76564
G0 F7200.00000 X91.920 Y96.680
G1 F1200.000 X92.323 Y96.307 E10.78390
G1 X92.761 Y95.938 E10.80295
G1 X93.231 Y95.582 E10.82256
G1 X93.693 Y95.267 E10.84116
G1 X94.181 Y94.968 E10.86020
G1 X94.681 Y94.694 E10.87916
G1 X95.172 Y94.455 E10.89732
G1 X95.719 Y94.221 E10.91711
G1 X96.244 Y94.027 E10.93573
G1 X96.777 Y93.859 E10.95431
G1 X97.356 Y93.708 E10.97422
G1 X97.895 Y93.595 E10.99253
G1 X98.457 Y93.506 E11.01146
G1 X99.025 Y93.444 E11.03046
G1 X99.603 Y93.410 E11.04972
G1 X100.103 Y93.400 E11.06635
G1 X115.164 Y93.402 E11.56728
G1 X115.725 Y93.424 E11.58596
G1 X116.295 Y93.474 E11.60499
G1 X116.853 Y93.550 E11.62372
G1 X117.401 Y93.653 E11.64226
G1 X117.982 Y93.791 E11.66213
G1 X118.519 Y93.948 E11.68073
G1 X119.025 Y94.122 E11.69853
G1 X119.254 Y94.209 E11.70668
G1 X119.600 Y94.352 E11.71913
G1 X120.096 Y94.581 E11.73730
G1 X120.601 Y94.844 E11.75624
G1 X121.096 Y95.133 E11.77530
G1 X121.564 Y95.438 E11.79388
G1 X122.042 Y95.784 E11.81351
G1 X122.474 Y96.131 E11.83194
G1 X122.899 Y96.508 E11.85083
G1 X123.319 Y96.919 E11.87038
G1 X123.692 Y97.322 E11.88864
G1 X124.061 Y97.760 E11.90769
G1 X124.417 Y98.230 E11.92730
G1 X124.724 Y98.679 E11.94539
G1 X125.031 Y99.179 E11.96491
G1 X125.294 Y99.657 E11.98305
G1 X125.545 Y100.170 E12.00205
G1 X125.779 Y100.717 E12.02184
G1 X125.973 Y101.242 E12.04045
G1 X126.141 Y101.775 E12.05904
G1 X126.292 Y102.354 E12.07894
G1 X126.405 Y102.893 E12.09726
G1 X126.495 Y103.459 E12.11632
G1 X126.556 Y104.024 E12.13522
G1 X126.589 Y104.565 E12.15325
G1 X126.598 Y105.133 E12.17214
G1 X126.576 Y105.727 E12.19191
G1 X126.526 Y106.297 E12.21094
G1 X126.449 Y106.860 E12.22984
G1 X126.347 Y107.402 E12.24819
G1 X126.209 Y107.983 E12.26805
G1 X126.052 Y108.520 E12.28666
G1 X125.869 Y109.049 E12.30527
G1 X125.647 Y109.601 E12.32506
G1 X125.418 Y110.097 E12.34323
G1 X125.155 Y110.602 E12.36217
G1 X124.866 Y111.097 E12.38124
G1 X124.561 Y111.565 E12.39982
