;FLAVOR:RepRap
;TIME:189
M104 S200.000000
M109 S200.000000
; -- START GCODE --
G21                     ;set units to millimetres
G90                     ;set to absolute positioning
M106 S0                 ;set fan speed to zero (turned off)
G28 X0 Y0               ;move to the X/Y origin (Home)
G28 Z0                  ;move to the Z origin (Home)
G1 Z15.0 F1200          ;move Z to position 15.0 mm
G92 E0                  ;zero the extruded length
G1 E20 F200             ;extrude 20mm of feed stock
G92 E0                  ;zero the extruded length again
G1 F7200                ;set feedrate to 120 mm/sec
; -- end of START GCODE --
;Generated with Cura_SteamEngine 2.1.0-
;LAYER_COUNT:35
;LAYER:0
M107
G1 F1800.000000 E-2.00000
G1 Z20.075
G0 F7200.000 X99.424 Y97.791 Z0.275
;TYPE:SKIRT
G1 Z0.200
G1 F1800.000 E0.00000
G1 F1200.00000 X100.023 Y97.276 E0.02627
G1 X100.900 Y96.688 E0.06139
G1 X103.599 Y95.129 E0.16506
G1 X104.302 Y94.769 E0.19133
G1 X105.037 Y94.482 E0.21757
G1 X105.798 Y94.271 E0.24384
G1 X106.577 Y94.138 E0.27012
G1 X107.364 Y94.084 E0.29636
G1 X108.154 Y94.110 E0.32265
G1 X108.936 Y94.216 E0.34890
G1 X109.704 Y94.401 E0.37517
G1 X110.449 Y94.662 E0.40143
G1 X111.401 Y95.129 E0.43670
G1 X114.100 Y96.688 E0.54037
G1 X114.763 Y97.117 E0.56663
G1 X115.379 Y97.611 E0.59289
G1 X115.943 Y98.164 E0.61916
G1 X116.447 Y98.772 E0.64543
G1 X116.887 Y99.428 E0.67170
G1 X117.258 Y100.125 E0.69797
G1 X117.558 Y100.856 E0.72425
G1 X117.781 Y101.613 E0.75049
G1 X117.928 Y102.389 E0.77676
G1 X117.999 Y103.442 E0.81187
G1 X117.999 Y106.558 E0.91550
G1 X117.959 Y107.347 E0.94178
G1 X117.840 Y108.127 E0.96802
G1 X117.642 Y108.892 E0.99431
G1 X117.368 Y109.632 E1.02055
G1 X117.020 Y110.341 E1.04682
G1 X116.602 Y111.012 E1.07311
G1 X116.119 Y111.636 E1.09936
G1 X115.576 Y112.209 E1.12561
G1 X114.977 Y112.724 E1.15189
G1 X114.100 Y113.312 E1.18701
G1 X111.401 Y114.871 E1.29068
G1 X110.698 Y115.231 E1.31695
G1 X109.963 Y115.518 E1.34319
G1 X109.202 Y115.729 E1.36946
G1 X108.423 Y115.862 E1.39574
G1 X107.636 Y115.916 E1.42198
G1 X106.846 Y115.890 E1.44827
G1 X106.064 Y115.784 E1.47451
G1 X105.296 Y115.599 E1.50079
G1 X104.551 Y115.338 E1.52704
G1 X103.599 Y114.871 E1.56231
G1 X100.900 Y113.312 E1.66598
G1 X100.237 Y112.883 E1.69225
G1 X99.621 Y112.389 E1.71851
G1 X99.057 Y111.836 E1.74478
G1 X98.553 Y111.228 E1.77105
G1 X98.113 Y110.572 E1.79732
G1 X97.742 Y109.875 E1.82358
G1 X97.442 Y109.144 E1.84986
G1 X97.219 Y108.387 E1.87611
G1 X97.072 Y107.611 E1.90238
G1 X97.001 Y106.558 E1.93748
G1 X97.001 Y103.442 E2.04112
G1 X97.041 Y102.653 E2.06739
G1 X97.160 Y101.873 E2.09364
G1 X97.358 Y101.108 E2.11992
G1 X97.632 Y100.368 E2.14617
G1 X97.980 Y99.659 E2.17243
G1 X98.398 Y98.988 E2.19873
G1 X98.881 Y98.364 E2.22497
G1 X99.424 Y97.791 E2.25123
G0 F7200.00000 X99.817 Y97.972
G1 F1200.000 X100.412 Y97.484 E2.27682
G1 X101.100 Y97.034 E2.30417
G1 X103.799 Y95.475 E2.40784
G1 X104.484 Y95.126 E2.43341
G1 X105.202 Y94.849 E2.45900
G1 X105.944 Y94.648 E2.48457
G1 X106.703 Y94.526 E2.51014
G1 X107.471 Y94.483 E2.53572
G1 X108.240 Y94.520 E2.56133
G1 X109.000 Y94.637 E2.58691
G1 X109.744 Y94.831 E2.61248
G1 X110.464 Y95.102 E2.63807
G1 X111.201 Y95.475 E2.66554
G1 X113.900 Y97.034 E2.76921
G1 X114.545 Y97.453 E2.79479
G1 X115.144 Y97.936 E2.82038
G1 X115.688 Y98.479 E2.84595
G1 X116.174 Y99.076 E2.87155
G1 X116.595 Y99.720 E2.89714
G1 X116.947 Y100.404 E2.92273
G1 X117.225 Y101.121 E2.94830
G1 X117.428 Y101.863 E2.97389
G1 X117.553 Y102.621 E2.99944
G1 X117.599 Y103.442 E3.02679
G1 X117.599 Y106.558 E3.13043
G1 X117.559 Y107.326 E3.15601
G1 X117.440 Y108.086 E3.18159
G1 X117.242 Y108.829 E3.20717
G1 X116.968 Y109.548 E3.23276
G1 X116.621 Y110.234 E3.25833
G1 X116.205 Y110.881 E3.28391
G1 X115.724 Y111.481 E3.30949
G1 X115.183 Y112.028 E3.33508
G1 X114.588 Y112.516 E3.36067
G1 X113.900 Y112.966 E3.38802
G1 X111.201 Y114.525 E3.49168
G1 X110.516 Y114.874 E3.51725
G1 X109.798 Y115.151 E3.54285
G1 X109.056 Y115.352 E3.56842
G1 X108.297 Y115.474 E3.59399
G1 X107.529 Y115.517 E3.61957
G1 X106.760 Y115.480 E3.64518
G1 X106.000 Y115.363 E3.67075
G1 X105.256 Y115.169 E3.69633
G1 X104.536 Y114.898 E3.72191
G1 X103.799 Y114.525 E3.74939
G1 X101.100 Y112.966 E3.85306
G1 X100.455 Y112.547 E3.87864
G1 X99.856 Y112.064 E3.90423
G1 X99.312 Y111.521 E3.92980
G1 X98.826 Y110.924 E3.95540
G1 X98.405 Y110.280 E3.98099
G1 X98.053 Y109.596 E4.00658
G1 X97.775 Y108.879 E4.03215
G1 X97.572 Y108.137 E4.05774
G1 X97.447 Y107.379 E4.08329
G1 X97.401 Y106.558 E4.11064
G1 X97.401 Y103.442 E4.21428
G1 X97.441 Y102.674 E4.23986
G1 X97.560 Y101.914 E4.26544
G1 X97.758 Y101.171 E4.29102
G1 X98.032 Y100.452 E4.31661
G1 X98.379 Y99.766 E4.34218
G1 X98.795 Y99.119 E4.36776
G1 X99.276 Y98.519 E4.39334
G1 X99.817 Y97.972 E4.41893
G0 F7200.00000 X100.209 Y98.158
G1 F1200.000 X100.799 Y97.699 E4.44379
G1 X101.300 Y97.381 E4.46353
G1 X103.999 Y95.822 E4.56719
G1 X104.666 Y95.483 E4.59208
G1 X105.365 Y95.217 E4.61696
G1 X106.088 Y95.027 E4.64182
G1 X106.828 Y94.915 E4.66671
G1 X107.575 Y94.883 E4.69158
G1 X108.322 Y94.931 E4.71648
G1 X109.059 Y95.059 E4.74136
G1 X109.778 Y95.264 E4.76622
G1 X110.472 Y95.545 E4.79113
G1 X111.001 Y95.822 E4.81099
G1 X113.700 Y97.381 E4.91466
G1 X114.327 Y97.789 E4.93954
G1 X114.907 Y98.262 E4.96443
G1 X115.433 Y98.794 E4.98931
G1 X115.899 Y99.379 E5.01419
G1 X116.300 Y100.010 E5.03905
G1 X116.631 Y100.681 E5.06394
G1 X116.889 Y101.383 E5.08881
G1 X117.071 Y102.109 E5.11371
G1 X117.174 Y102.850 E5.13859
G1 X117.199 Y103.442 E5.15830
G1 X117.199 Y106.558 E5.26194
G1 X117.159 Y107.305 E5.28682
G1 X117.040 Y108.043 E5.31168
G1 X116.842 Y108.765 E5.33658
G1 X116.569 Y109.461 E5.36145
G1 X116.222 Y110.124 E5.38634
G1 X115.807 Y110.747 E5.41123
G1 X115.328 Y111.321 E5.43610
G1 X114.791 Y111.842 E5.46099
G1 X114.201 Y112.301 E5.48585
G1 X113.700 Y112.619 E5.50558
G1 X111.001 Y114.178 E5.60925
G1 X110.334 Y114.517 E5.63414
G1 X109.635 Y114.783 E5.65901
G1 X108.912 Y114.973 E5.68388
G1 X108.172 Y115.085 E5.70877
G1 X107.425 Y115.117 E5.73364
G1 X106.678 Y115.069 E5.75854
G1 X105.941 Y114.941 E5.78341
G1 X105.222 Y114.736 E5.80828
G1 X104.528 Y114.455 E5.83318
G1 X103.999 Y114.178 E5.85305
G1 X101.300 Y112.619 E5.95671
G1 X100.673 Y112.211 E5.98159
G1 X100.093 Y111.738 E6.00649
G1 X99.567 Y111.206 E6.03137
G1 X99.101 Y110.621 E6.05625
G1 X98.700 Y109.990 E6.08111
G1 X98.369 Y109.319 E6.10600
G1 X98.111 Y108.617 E6.13087
G1 X97.929 Y107.891 E6.15577
G1 X97.826 Y107.150 E6.18065
G1 X97.801 Y106.558 E6.20036
G1 X97.801 Y103.442 E6.30400
G1 X97.841 Y102.695 E6.32888
G1 X97.960 Y101.957 E6.35374
G1 X98.158 Y101.235 E6.37864
G1 X98.431 Y100.539 E6.40351
G1 X98.778 Y99.876 E6.42840
G1 X99.193 Y99.253 E6.45329
G1 X99.672 Y98.679 E6.47816
G1 X100.209 Y98.158 E6.50304
G0 F7200.00000 X100.600 Y98.351
G1 F1200.000 X101.185 Y97.921 E6.52719
G1 X101.500 Y97.727 E6.53950
G1 X104.199 Y96.168 E6.64317
G1 X104.847 Y95.840 E6.66732
G1 X105.527 Y95.585 E6.69148
G1 X106.231 Y95.406 E6.71564
G1 X106.950 Y95.306 E6.73978
G1 X107.677 Y95.285 E6.76397
G1 X108.400 Y95.345 E6.78810
G1 X109.113 Y95.483 E6.81226
G1 X109.807 Y95.699 E6.83643
G1 X110.473 Y95.990 E6.86060
G1 X110.801 Y96.168 E6.87302
G1 X113.500 Y97.727 E6.97668
G1 X114.108 Y98.124 E7.00084
G1 X114.669 Y98.586 E7.02501
G1 X115.175 Y99.107 E7.04916
G1 X115.622 Y99.680 E7.07333
G1 X116.002 Y100.298 E7.09746
G1 X116.313 Y100.955 E7.12164
G1 X116.549 Y101.642 E7.14580
G1 X116.708 Y102.351 E7.16997
G1 X116.789 Y103.073 E7.19413
G1 X116.799 Y103.442 E7.20641
G1 X116.799 Y106.558 E7.31005
G1 X116.759 Y107.283 E7.33420
G1 X116.640 Y108.000 E7.35837
G1 X116.442 Y108.699 E7.38254
G1 X116.169 Y109.372 E7.40669
G1 X115.824 Y110.011 E7.43084
G1 X115.410 Y110.608 E7.45501
G1 X114.934 Y111.156 E7.47915
G1 X114.400 Y111.649 E7.50332
G1 X113.815 Y112.079 E7.52747
G1 X113.500 Y112.273 E7.53978
G1 X110.801 Y113.832 E7.64344
G1 X110.153 Y114.160 E7.66760
G1 X109.473 Y114.415 E7.69176
G1 X108.769 Y114.594 E7.71592
G1 X108.050 Y114.694 E7.74006
G1 X107.323 Y114.715 E7.76425
G1 X106.600 Y114.655 E7.78838
G1 X105.887 Y114.517 E7.81253
G1 X105.193 Y114.301 E7.83671
G1 X104.527 Y114.010 E7.86088
G1 X104.199 Y113.832 E7.87330
G1 X101.500 Y112.273 E7.97696
G1 X100.892 Y111.876 E8.00112
G1 X100.331 Y111.414 E8.02529
G1 X99.825 Y110.893 E8.04944
G1 X99.378 Y110.320 E8.07361
G1 X98.998 Y109.702 E8.09774
G1 X98.687 Y109.045 E8.12192
G1 X98.451 Y108.358 E8.14608
G1 X98.292 Y107.649 E8.17025
G1 X98.211 Y106.927 E8.19441
G1 X98.201 Y106.558 E8.20669
G1 X98.201 Y103.442 E8.31033
G1 X98.241 Y102.717 E8.33448
G1 X98.360 Y102.000 E8.35865
G1 X98.558 Y101.301 E8.38282
G1 X98.831 Y100.628 E8.40697
G1 X99.176 Y99.989 E8.43112
G1 X99.590 Y99.392 E8.45529
G1 X100.066 Y98.844 E8.47943
G1 X100.600 Y98.351 E8.50360
G0 F7200.00000 X100.990 Y98.551
G1 F1200.000 X101.700 Y98.073 E8.53207
G1 X104.399 Y96.514 E8.63574
G1 X105.028 Y96.197 E8.65917
G1 X105.688 Y95.954 E8.68256
G1 X106.372 Y95.787 E8.70598
G1 X107.070 Y95.698 E8.72938
G1 X107.774 Y95.689 E8.75280
G1 X108.475 Y95.760 E8.77623
G1 X109.162 Y95.910 E8.79962
G1 X109.829 Y96.137 E8.82305
G1 X110.601 Y96.514 E8.85163
G1 X113.300 Y98.073 E8.95530
G1 X113.889 Y98.459 E8.97872
G1 X114.430 Y98.910 E9.00215
G1 X114.916 Y99.419 E9.02555
G1 X115.342 Y99.979 E9.04896
G1 X115.701 Y100.585 E9.07238
G1 X115.990 Y101.227 E9.09580
G1 X116.204 Y101.898 E9.11922
G1 X116.340 Y102.588 E9.14262
G1 X116.399 Y103.442 E9.17109
G1 X116.399 Y106.558 E9.27473
G1 X116.359 Y107.261 E9.29815
G1 X116.240 Y107.955 E9.32157
G1 X116.042 Y108.630 E9.34496
G1 X115.770 Y109.279 E9.36837
G1 X115.425 Y109.893 E9.39179
G1 X115.014 Y110.464 E9.41519
G1 X114.540 Y110.985 E9.43862
G1 X114.010 Y111.449 E9.46205
G1 X113.300 Y111.927 E9.49051
G1 X110.601 Y113.486 E9.59418
G1 X109.972 Y113.803 E9.61761
G1 X109.312 Y114.046 E9.64100
G1 X108.628 Y114.213 E9.66442
G1 X107.930 Y114.302 E9.68782
G1 X107.226 Y114.311 E9.71124
G1 X106.525 Y114.240 E9.73468
G1 X105.838 Y114.090 E9.75806
G1 X105.171 Y113.863 E9.78150
G1 X104.399 Y113.486 E9.81007
G1 X101.700 Y111.927 E9.91374
G1 X101.111 Y111.541 E9.93716
G1 X100.570 Y111.090 E9.96059
G1 X100.084 Y110.581 E9.98400
G1 X99.658 Y110.021 E10.00740
G1 X99.299 Y109.415 E10.03083
G1 X99.010 Y108.773 E10.05424
G1 X98.796 Y108.102 E10.07767
G1 X98.660 Y107.412 E10.10106
G1 X98.601 Y106.558 E10.12953
G1 X98.601 Y103.442 E10.23317
G1 X98.641 Y102.739 E10.25659
G1 X98.760 Y102.045 E10.28001
G1 X98.958 Y101.370 E10.30341
G1 X99.230 Y100.721 E10.32681
G1 X99.575 Y100.107 E10.35024
G1 X99.986 Y99.536 E10.37363
G1 X100.460 Y99.015 E10.39706
G1 X100.990 Y98.551 E10.42049
G0 F7200.00000 X101.379 Y98.759
G1 F1200.000 X101.900 Y98.420 E10.44116
G1 X104.599 Y96.861 E10.54483
G1 X105.208 Y96.555 E10.56750
G1 X105.848 Y96.323 E10.59014
G1 X106.511 Y96.168 E10.61279
G1 X107.187 Y96.091 E10.63542
G1 X107.868 Y96.095 E10.65807
G1 X108.544 Y96.178 E10.68072
G1 X109.205 Y96.339 E10.70335
G1 X109.843 Y96.577 E10.72600
G1 X110.401 Y96.861 E10.74682
G1 X113.100 Y98.420 E10.85049
G1 X113.669 Y98.794 E10.87314
G1 X114.189 Y99.233 E10.89577
G1 X114.655 Y99.729 E10.91841
G1 X115.060 Y100.277 E10.94107
G1 X115.397 Y100.869 E10.96373
G1 X115.663 Y101.496 E10.98638
G1 X115.853 Y102.149 E11.00900
G1 X115.966 Y102.821 E11.03167
G1 X115.999 Y103.442 E11.05235
G1 X115.999 Y106.558 E11.15599
G1 X115.959 Y107.238 E11.17865
G1 X115.840 Y107.908 E11.20128
G1 X115.643 Y108.560 E11.22393
G1 X115.371 Y109.184 E11.24657
G1 X115.027 Y109.772 E11.26923
G1 X114.617 Y110.316 E11.29189
G1 X114.146 Y110.807 E11.31452
G1 X113.621 Y111.241 E11.33717
G1 X113.100 Y111.580 E11.35785
G1 X110.401 Y113.139 E11.46152
G1 X109.792 Y113.445 E11.48418
G1 X109.152 Y113.677 E11.50683
G1 X108.489 Y113.832 E11.52947
G1 X107.813 Y113.909 E11.55210
G1 X107.132 Y113.905 E11.57475
G1 X106.456 Y113.822 E11.59740
G1 X105.795 Y113.661 E11.62003
G1 X105.157 Y113.423 E11.64268
G1 X104.599 Y113.139 E11.66350
G1 X101.900 Y111.580 E11.76717
G1 X101.331 Y111.206 E11.78982
G1 X100.811 Y110.767 E11.81246
G1 X100.345 Y110.271 E11.83509
G1 X99.940 Y109.723 E11.85775
G1 X99.603 Y109.131 E11.88041
G1 X99.337 Y108.504 E11.90306
G1 X99.147 Y107.851 E11.92568
G1 X99.034 Y107.179 E11.94835
G1 X99.001 Y106.558 E11.96903
G1 X99.001 Y103.442 E12.07267
G1 X99.041 Y102.762 E12.09533
G1 X99.160 Y102.092 E12.11796
G1 X99.357 Y101.440 E12.14061
G1 X99.629 Y100.816 E12.16325
G1 X99.973 Y100.228 E12.18591
G1 X100.383 Y99.684 E12.20857
G1 X100.854 Y99.193 E12.23120
G1 X101.379 Y98.759 E12.25385
G0 F7200.00000 X102.100 Y98.766
G1 F1200.000 X104.799 Y97.207 E12.35752
G1 X105.387 Y96.914 E12.37937
G1 X106.006 Y96.694 E12.40122
G1 X106.647 Y96.551 E12.42307
G1 X107.301 Y96.487 E12.44492
G1 X107.958 Y96.502 E12.46678
G1 X108.608 Y96.598 E12.48863
G1 X109.241 Y96.771 E12.51046
G1 X109.849 Y97.021 E12.53233
G1 X110.201 Y97.207 E12.54557
G1 X112.900 Y98.766 E12.64924
G1 X113.448 Y99.129 E12.67110
G1 X113.948 Y99.555 E12.69295
G1 X114.392 Y100.039 E12.71479
G1 X114.774 Y100.573 E12.73663
G1 X115.089 Y101.150 E12.75849
G1 X115.331 Y101.761 E12.78035
G1 X115.497 Y102.396 E12.80218
G1 X115.585 Y103.048 E12.82406
G1 X115.599 Y103.442 E12.83718
G1 X115.599 Y106.558 E12.94081
G1 X115.559 Y107.214 E12.96267
G1 X115.440 Y107.860 E12.98452
G1 X115.243 Y108.487 E13.00638
G1 X114.971 Y109.085 E13.02823
G1 X114.629 Y109.646 E13.05008
G1 X114.221 Y110.161 E13.07194
G1 X113.754 Y110.623 E13.09379
G1 X113.234 Y111.024 E13.11563
G1 X112.900 Y111.234 E13.12875
G1 X110.201 Y112.793 E13.23242
G1 X109.613 Y113.086 E13.25427
G1 X108.994 Y113.306 E13.27612
G1 X108.353 Y113.449 E13.29796
G1 X107.699 Y113.513 E13.31982
G1 X107.042 Y113.498 E13.34167
G1 X106.392 Y113.402 E13.36353
G1 X105.759 Y113.229 E13.38535
G1 X105.151 Y112.979 E13.40722
G1 X104.799 Y112.793 E13.42046
G1 X102.100 Y111.234 E13.52413
G1 X101.552 Y110.871 E13.54599
G1 X101.052 Y110.445 E13.56784
G1 X100.608 Y109.961 E13.58968
G1 X100.226 Y109.427 E13.61152
G1 X99.911 Y108.850 E13.63339
G1 X99.669 Y108.239 E13.65524
G1 X99.503 Y107.604 E13.67707
G1 X99.415 Y106.952 E13.69896
G1 X99.401 Y106.558 E13.71207
G1 X99.401 Y103.442 E13.81571
G1 X99.441 Y102.786 E13.83757
G1 X99.560 Y102.140 E13.85941
G1 X99.757 Y101.513 E13.88127
G1 X100.029 Y100.915 E13.90312
G1 X100.371 Y100.354 E13.92498
G1 X100.779 Y99.839 E13.94683
G1 X101.246 Y99.377 E13.96868
G1 X101.766 Y98.976 E13.99052
G1 X102.100 Y98.766 E14.00364
G0 F7200.00000 X102.300 Y99.112
G1 F1200.000 X104.999 Y97.553 E14.10731
G1 X105.565 Y97.272 E14.12833
G1 X106.163 Y97.065 E14.14938
G1 X106.781 Y96.935 E14.17038
G1 X107.411 Y96.884 E14.19140
G1 X108.043 Y96.913 E14.21245
G1 X108.666 Y97.021 E14.23348
G1 X109.270 Y97.207 E14.25450
G1 X110.001 Y97.553 E14.28139
G1 X112.700 Y99.112 E14.38506
G1 X113.226 Y99.463 E14.40610
G1 X113.704 Y99.876 E14.42711
G1 X114.126 Y100.347 E14.44814
G1 X114.485 Y100.867 E14.46916
G1 X114.776 Y101.429 E14.49021
G1 X114.993 Y102.022 E14.51121
G1 X115.134 Y102.638 E14.53223
G1 X115.199 Y103.442 E14.55905
G1 X115.199 Y106.558 E14.66269
G1 X115.159 Y107.189 E14.68372
G1 X115.040 Y107.810 E14.70475
G1 X114.843 Y108.410 E14.72576
G1 X114.572 Y108.982 E14.74681
G1 X114.232 Y109.514 E14.76781
G1 X113.826 Y109.999 E14.78885
G1 X113.363 Y110.429 E14.80986
G1 X112.700 Y110.888 E14.83668
G1 X110.001 Y112.447 E14.94035
G1 X109.435 Y112.728 E14.96137
G1 X108.837 Y112.935 E14.98242
G1 X108.219 Y113.065 E15.00342
G1 X107.589 Y113.116 E15.02444
G1 X106.957 Y113.087 E15.04549
G1 X106.334 Y112.979 E15.06652
G1 X105.730 Y112.793 E15.08754
G1 X104.999 Y112.447 E15.11443
G1 X102.300 Y110.888 E15.21810
G1 X101.774 Y110.537 E15.23914
G1 X101.296 Y110.124 E15.26015
G1 X100.874 Y109.653 E15.28118
G1 X100.515 Y109.133 E15.30220
G1 X100.224 Y108.571 E15.32325
G1 X100.007 Y107.978 E15.34425
G1 X99.866 Y107.362 E15.36527
G1 X99.801 Y106.558 E15.39209
G1 X99.801 Y103.442 E15.49573
G1 X99.841 Y102.811 E15.51676
G1 X99.960 Y102.190 E15.53779
G1 X100.157 Y101.590 E15.55880
G1 X100.428 Y101.018 E15.57985
G1 X100.768 Y100.486 E15.60085
G1 X101.174 Y100.001 E15.62189
G1 X101.637 Y99.571 E15.64290
G1 X102.300 Y99.112 E15.66972
