;FLAVOR:RepRap
;TIME:13095
M104 S200.000000
M109 S200.000000
; -- START GCODE --
G21                     ;set units to millimetres
G90                     ;set to absolute positioning
M106 S0                 ;set fan speed to zero (turned off)
G28 X0 Y0               ;move to the X/Y origin (Home)
G28 Z0                  ;move to the Z origin (Home)
G1 Z15.0 F1200          ;move Z to position 15.0 mm
G92 E0                  ;zero the extruded length
G1 E20 F200             ;extrude 20mm of feed stock
G92 E0                  ;zero the extruded length again
G1 F7200                ;set feedrate to 120 mm/sec
; -- end of START GCODE --
;Generated with Cura_SteamEngine 2.1.0-
;LAYER_COUNT:75
;LAYER:0
M107
G1 F1800.000000 E-2.00000
G1 Z20.075
G0 F7200.000 X54.623 Y104.939 Z0.275
;TYPE:SKIRT
G1 Z0.200
G1 F1800.000 E0.00000
G1 F1200.00000 X55.348 Y104.627 E0.02625
G1 X56.101 Y104.390 E0.05251
G1 X56.875 Y104.230 E0.07880
G1 X57.660 Y104.149 E0.10504
G1 X58.064 Y104.139 E0.11848
G1 X64.429 Y104.139 E0.33019
G1 X65.218 Y104.179 E0.35646
G1 X65.998 Y104.298 E0.38270
G1 X66.295 Y104.375 E0.39291
G1 X68.336 Y104.375 E0.46079
G1 X68.368 Y104.250 E0.46508
G1 X68.642 Y103.510 E0.49133
G1 X68.990 Y102.801 E0.51760
G1 X69.408 Y102.130 E0.54389
G1 X69.891 Y101.506 E0.57014
G1 X70.434 Y100.933 E0.59639
G1 X71.033 Y100.418 E0.62267
G1 X71.681 Y99.967 E0.64893
G1 X71.904 Y99.843 E0.65741
G1 X72.277 Y99.361 E0.67768
G1 X72.820 Y98.788 E0.70394
G1 X73.419 Y98.273 E0.73021
G1 X74.067 Y97.822 E0.75647
G1 X74.758 Y97.438 E0.78277
G1 X75.483 Y97.126 E0.80902
G1 X76.236 Y96.889 E0.83527
G1 X77.010 Y96.730 E0.86156
G1 X77.795 Y96.649 E0.88780
G1 X78.197 Y96.639 E0.90118
G1 X78.933 Y96.639 E0.92566
G1 X79.722 Y96.679 E0.95193
G1 X80.502 Y96.798 E0.97818
G1 X80.799 Y96.875 E0.98838
G1 X83.397 Y96.875 E1.07479
G1 X84.186 Y96.915 E1.10107
G1 X84.966 Y97.034 E1.12731
G1 X85.731 Y97.232 E1.15359
G1 X86.471 Y97.506 E1.17984
G1 X87.180 Y97.854 E1.20611
G1 X87.851 Y98.272 E1.23240
G1 X88.475 Y98.755 E1.25865
G1 X88.495 Y98.774 E1.25956
G1 X110.369 Y98.755 E1.98710
G1 X110.369 Y56.799 E3.38256
G1 X110.409 Y56.010 E3.40883
G1 X110.528 Y55.230 E3.43508
G1 X110.726 Y54.465 E3.46136
G1 X111.000 Y53.725 E3.48760
G1 X111.348 Y53.016 E3.51387
G1 X111.766 Y52.345 E3.54017
G1 X112.249 Y51.721 E3.56641
G1 X112.792 Y51.148 E3.59267
G1 X113.391 Y50.633 E3.61894
G1 X114.039 Y50.182 E3.64520
G1 X114.730 Y49.798 E3.67149
G1 X115.455 Y49.486 E3.69775
G1 X116.208 Y49.249 E3.72400
G1 X116.982 Y49.090 E3.75028
G1 X117.767 Y49.009 E3.77653
G1 X118.169 Y48.999 E3.78991
G1 X146.532 Y48.999 E4.73326
G1 X146.811 Y48.759 E4.74550
G1 X147.459 Y48.308 E4.77176
G1 X148.150 Y47.924 E4.79806
G1 X148.875 Y47.612 E4.82431
G1 X149.628 Y47.375 E4.85056
G1 X150.402 Y47.216 E4.87684
G1 X151.187 Y47.135 E4.90309
G1 X151.589 Y47.125 E4.91647
G1 X154.417 Y47.125 E5.01053
G1 X155.123 Y46.980 E5.03450
G1 X155.908 Y46.899 E5.06075
G1 X156.310 Y46.889 E5.07412
G1 X157.046 Y46.889 E5.09860
G1 X157.835 Y46.929 E5.12488
G1 X158.615 Y47.048 E5.15112
G1 X159.380 Y47.246 E5.17740
G1 X160.120 Y47.520 E5.20365
G1 X160.829 Y47.868 E5.22992
G1 X161.500 Y48.286 E5.25621
G1 X162.124 Y48.769 E5.28245
G1 X162.697 Y49.312 E5.30871
G1 X163.212 Y49.911 E5.33498
G1 X163.663 Y50.559 E5.36124
G1 X164.047 Y51.250 E5.38754
G1 X164.359 Y51.975 E5.41379
G1 X164.596 Y52.728 E5.44004
G1 X164.755 Y53.502 E5.46633
G1 X164.836 Y54.287 E5.49257
G1 X164.843 Y54.550 E5.50132
G1 X164.859 Y54.602 E5.50313
G1 X165.018 Y55.376 E5.52941
G1 X165.099 Y56.161 E5.55566
G1 X165.109 Y56.563 E5.56904
G1 X165.110 Y103.689 E7.13645
G1 X165.070 Y104.478 E7.16273
G1 X164.951 Y105.258 E7.18897
G1 X164.840 Y105.689 E7.20378
G1 X164.806 Y106.350 E7.22579
G1 X164.687 Y107.130 E7.25203
G1 X164.489 Y107.895 E7.27832
G1 X164.215 Y108.635 E7.30456
G1 X163.867 Y109.344 E7.33083
G1 X163.449 Y110.015 E7.35712
G1 X162.966 Y110.639 E7.38337
G1 X162.423 Y111.212 E7.40962
G1 X161.824 Y111.727 E7.43590
G1 X161.176 Y112.178 E7.46216
G1 X160.485 Y112.562 E7.48845
G1 X159.760 Y112.874 E7.51470
G1 X159.589 Y112.928 E7.52067
G1 X159.589 Y149.015 E8.72093
G1 X159.775 Y149.606 E8.74153
G1 X159.934 Y150.380 E8.76781
G1 X160.015 Y151.165 E8.79406
G1 X160.025 Y151.566 E8.80740
G1 X160.025 Y153.428 E8.86933
G1 X159.985 Y154.217 E8.89561
G1 X159.866 Y154.997 E8.92185
G1 X159.668 Y155.762 E8.94813
G1 X159.394 Y156.502 E8.97438
G1 X159.046 Y157.211 E9.00065
G1 X158.628 Y157.882 E9.02694
G1 X158.145 Y158.506 E9.05319
G1 X157.602 Y159.079 E9.07944
G1 X157.003 Y159.594 E9.10572
G1 X156.355 Y160.045 E9.13198
G1 X155.664 Y160.429 E9.15827
G1 X154.939 Y160.741 E9.18452
G1 X154.186 Y160.978 E9.21078
G1 X153.412 Y161.137 E9.23706
G1 X152.627 Y161.218 E9.26331
G1 X152.226 Y161.228 E9.27665
G1 X118.867 Y161.232 E10.38617
G1 X118.232 Y161.505 E10.40916
G1 X117.479 Y161.742 E10.43542
G1 X116.705 Y161.901 E10.46170
G1 X115.920 Y161.982 E10.48795
G1 X115.518 Y161.992 E10.50132
G1 X112.518 Y161.992 E10.60110
G1 X111.729 Y161.952 E10.62738
G1 X110.949 Y161.833 E10.65362
G1 X110.184 Y161.635 E10.67990
G1 X109.444 Y161.361 E10.70615
G1 X109.182 Y161.232 E10.71586
G1 X88.183 Y161.235 E11.41429
G1 X88.175 Y161.241 E11.41462
G1 X87.527 Y161.692 E11.44088
G1 X86.836 Y162.076 E11.46718
G1 X86.111 Y162.388 E11.49343
G1 X85.358 Y162.625 E11.51968
G1 X84.584 Y162.784 E11.54596
G1 X83.799 Y162.865 E11.57221
G1 X83.397 Y162.875 E11.58559
G1 X80.826 Y162.875 E11.67110
G1 X80.120 Y163.020 E11.69507
G1 X79.335 Y163.101 E11.72132
G1 X78.933 Y163.111 E11.73469
G1 X78.197 Y163.111 E11.75917
G1 X77.408 Y163.071 E11.78545
G1 X76.628 Y162.952 E11.81169
G1 X75.863 Y162.754 E11.83797
G1 X75.123 Y162.480 E11.86422
G1 X74.414 Y162.132 E11.89049
G1 X73.743 Y161.714 E11.91678
G1 X73.119 Y161.231 E11.94303
G1 X72.546 Y160.688 E11.96928
G1 X72.273 Y160.370 E11.98322
G1 X71.816 Y160.128 E12.00042
G1 X71.159 Y159.690 E12.02669
G1 X70.550 Y159.188 E12.05294
G1 X69.995 Y158.626 E12.07921
G1 X69.499 Y158.012 E12.10546
G1 X69.068 Y157.350 E12.13173
G1 X68.706 Y156.648 E12.15800
G1 X68.417 Y155.913 E12.18427
G1 X68.266 Y155.375 E12.20286
G1 X66.323 Y155.375 E12.26748
G1 X65.617 Y155.520 E12.29145
G1 X64.832 Y155.601 E12.31770
G1 X64.430 Y155.611 E12.33107
G1 X58.065 Y155.611 E12.54278
G1 X57.276 Y155.571 E12.56905
G1 X56.496 Y155.452 E12.59529
G1 X55.731 Y155.254 E12.62158
G1 X54.991 Y154.980 E12.64782
G1 X54.282 Y154.632 E12.67409
G1 X53.611 Y154.214 E12.70039
G1 X52.987 Y153.731 E12.72663
G1 X52.414 Y153.188 E12.75289
G1 X51.899 Y152.589 E12.77916
G1 X51.448 Y151.941 E12.80542
G1 X51.064 Y151.250 E12.83171
G1 X50.752 Y150.525 E12.85796
G1 X50.515 Y149.772 E12.88422
G1 X50.356 Y148.998 E12.91050
G1 X50.275 Y148.213 E12.93675
G1 X50.265 Y147.811 E12.95012
G1 X50.265 Y146.877 E12.98119
G1 X50.141 Y146.589 E12.99162
G1 X49.904 Y145.836 E13.01787
G1 X49.745 Y145.062 E13.04415
G1 X49.664 Y144.277 E13.07040
G1 X49.654 Y143.875 E13.08378
G1 X49.654 Y140.875 E13.18356
G1 X49.694 Y140.086 E13.20983
G1 X49.813 Y139.306 E13.23608
G1 X50.011 Y138.541 E13.26236
G1 X50.285 Y137.801 E13.28860
G1 X50.404 Y137.559 E13.29757
G1 X50.403 Y137.188 E13.30991
G1 X50.419 Y136.680 E13.32682
G1 X50.434 Y136.444 E13.33468
G1 X50.524 Y135.660 E13.36093
G1 X50.692 Y134.888 E13.38721
G1 X50.938 Y134.138 E13.41346
G1 X51.259 Y133.416 E13.43974
G1 X51.651 Y132.731 E13.46599
G1 X52.110 Y132.088 E13.49227
G1 X52.632 Y131.495 E13.51854
G1 X53.211 Y130.958 E13.54481
G1 X53.841 Y130.483 E13.57105
G1 X54.516 Y130.073 E13.59732
G1 X54.932 Y129.875 E13.61264
G1 X54.436 Y129.632 E13.63101
G1 X53.765 Y129.214 E13.65731
G1 X53.141 Y128.731 E13.68355
G1 X52.568 Y128.188 E13.70981
G1 X52.053 Y127.589 E13.73608
G1 X51.602 Y126.941 E13.76234
G1 X51.218 Y126.250 E13.78863
G1 X50.906 Y125.525 E13.81489
G1 X50.669 Y124.772 E13.84114
G1 X50.510 Y123.998 E13.86742
G1 X50.419 Y122.823 E13.90662
G1 X50.418 Y122.233 E13.92624
G1 X50.141 Y121.589 E13.94956
G1 X49.904 Y120.836 E13.97582
G1 X49.745 Y120.062 E14.00210
G1 X49.664 Y119.277 E14.02835
G1 X49.654 Y118.875 E14.04172
G1 X49.654 Y115.875 E14.14150
G1 X49.694 Y115.086 E14.16778
G1 X49.813 Y114.306 E14.19402
G1 X50.011 Y113.541 E14.22030
G1 X50.264 Y112.857 E14.24456
G1 X50.264 Y111.941 E14.27502
G1 X50.304 Y111.152 E14.30130
G1 X50.423 Y110.372 E14.32754
G1 X50.621 Y109.607 E14.35383
G1 X50.895 Y108.866 E14.38010
G1 X51.242 Y108.157 E14.40636
G1 X51.659 Y107.487 E14.43260
G1 X52.142 Y106.862 E14.45888
G1 X52.686 Y106.289 E14.48516
G1 X53.285 Y105.775 E14.51141
G1 X53.933 Y105.323 E14.53769
G1 X54.623 Y104.939 E14.56395
G0 F7200.00000 X54.998 Y105.204
G1 F1200.000 X55.714 Y104.922 E14.58954
G1 X56.455 Y104.716 E14.61512
G1 X57.213 Y104.588 E14.64069
G1 X58.064 Y104.539 E14.66904
G1 X64.429 Y104.539 E14.88074
G1 X65.197 Y104.579 E14.90632
G1 X65.957 Y104.698 E14.93191
G1 X66.246 Y104.775 E14.94186
G1 X68.645 Y104.775 E15.02165
G1 X68.768 Y104.313 E15.03755
G1 X69.042 Y103.594 E15.06314
G1 X69.389 Y102.908 E15.08871
G1 X69.805 Y102.261 E15.11429
G1 X70.286 Y101.661 E15.13987
G1 X70.827 Y101.114 E15.16546
G1 X71.422 Y100.626 E15.19105
G1 X72.064 Y100.203 E15.21662
G1 X72.171 Y100.148 E15.22063
G1 X72.191 Y100.116 E15.22188
G1 X72.672 Y99.516 E15.24746
G1 X73.213 Y98.969 E15.27305
G1 X73.808 Y98.481 E15.29864
G1 X74.450 Y98.058 E15.32421
G1 X75.133 Y97.703 E15.34981
G1 X75.848 Y97.422 E15.37537
G1 X76.590 Y97.216 E15.40098
G1 X77.348 Y97.088 E15.42655
G1 X78.197 Y97.039 E15.45483
G1 X78.933 Y97.039 E15.47931
G1 X79.701 Y97.079 E15.50489
G1 X80.461 Y97.198 E15.53048
G1 X80.750 Y97.275 E15.54042
G1 X83.397 Y97.275 E15.62846
G1 X84.165 Y97.315 E15.65404
G1 X84.925 Y97.434 E15.67963
G1 X85.668 Y97.632 E15.70520
G1 X86.387 Y97.906 E15.73079
G1 X87.073 Y98.253 E15.75636
G1 X87.720 Y98.669 E15.78195
G1 X88.320 Y99.150 E15.80752
G1 X88.344 Y99.174 E15.80865
G1 X110.769 Y99.154 E16.55451
G1 X110.769 Y56.799 E17.96324
G1 X110.809 Y56.031 E17.98882
G1 X110.928 Y55.271 E18.01441
G1 X111.126 Y54.528 E18.03998
G1 X111.400 Y53.809 E18.06557
G1 X111.747 Y53.123 E18.09114
G1 X112.163 Y52.476 E18.11673
G1 X112.644 Y51.876 E18.14230
G1 X113.185 Y51.329 E18.16789
G1 X113.780 Y50.841 E18.19349
G1 X114.422 Y50.418 E18.21906
G1 X115.105 Y50.063 E18.24466
G1 X115.820 Y49.782 E18.27021
G1 X116.562 Y49.576 E18.29582
G1 X117.320 Y49.448 E18.32139
G1 X118.169 Y49.399 E18.34968
G1 X146.673 Y49.399 E19.29772
G1 X147.200 Y48.967 E19.32039
G1 X147.842 Y48.544 E19.34596
G1 X148.525 Y48.189 E19.37156
G1 X149.240 Y47.908 E19.39711
G1 X149.982 Y47.702 E19.42273
G1 X150.740 Y47.574 E19.44829
G1 X151.589 Y47.525 E19.47658
G1 X154.490 Y47.525 E19.57307
G1 X154.703 Y47.466 E19.58042
G1 X155.461 Y47.338 E19.60599
G1 X156.310 Y47.289 E19.63427
G1 X157.046 Y47.289 E19.65875
G1 X157.814 Y47.329 E19.68433
G1 X158.574 Y47.448 E19.70991
G1 X159.317 Y47.646 E19.73549
G1 X160.036 Y47.920 E19.76108
G1 X160.722 Y48.267 E19.78665
G1 X161.369 Y48.683 E19.81223
G1 X161.969 Y49.164 E19.83781
G1 X162.516 Y49.705 E19.86340
G1 X163.004 Y50.300 E19.88899
G1 X163.427 Y50.942 E19.91456
G1 X163.782 Y51.625 E19.94017
G1 X164.063 Y52.340 E19.96572
G1 X164.269 Y53.082 E19.99133
G1 X164.397 Y53.840 E20.01690
G1 X164.443 Y54.635 E20.04339
G1 X164.532 Y54.956 E20.05446
G1 X164.660 Y55.714 E20.08003
G1 X164.709 Y56.563 E20.10832
G1 X164.710 Y103.689 E21.67573
G1 X164.670 Y104.457 E21.70131
G1 X164.551 Y105.217 E21.72690
G1 X164.443 Y105.623 E21.74087
G1 X164.406 Y106.329 E21.76439
G1 X164.287 Y107.089 E21.78997
G1 X164.089 Y107.832 E21.81555
G1 X163.815 Y108.551 E21.84114
G1 X163.468 Y109.237 E21.86671
G1 X163.052 Y109.884 E21.89229
G1 X162.571 Y110.484 E21.91787
G1 X162.030 Y111.031 E21.94346
G1 X161.435 Y111.519 E21.96905
G1 X160.793 Y111.942 E21.99462
G1 X160.110 Y112.297 E22.02022
G1 X159.395 Y112.578 E22.04578
G1 X159.189 Y112.635 E22.05288
G1 X159.189 Y149.081 E23.26508
G1 X159.243 Y149.218 E23.26998
G1 X159.448 Y149.959 E23.29555
G1 X159.576 Y150.718 E23.32115
G1 X159.625 Y151.566 E23.34941
G1 X159.625 Y153.428 E23.41134
G1 X159.585 Y154.196 E23.43691
G1 X159.466 Y154.956 E23.46250
G1 X159.268 Y155.699 E23.48807
G1 X158.994 Y156.418 E23.51367
G1 X158.647 Y157.104 E23.53924
G1 X158.231 Y157.751 E23.56482
G1 X157.750 Y158.351 E23.59040
G1 X157.209 Y158.898 E23.61598
G1 X156.614 Y159.386 E23.64158
G1 X155.972 Y159.809 E23.66715
G1 X155.289 Y160.164 E23.69275
G1 X154.574 Y160.445 E23.71830
G1 X153.832 Y160.651 E23.74392
G1 X153.074 Y160.779 E23.76948
G1 X152.226 Y160.828 E23.79774
G1 X118.767 Y160.832 E24.91059
G1 X118.582 Y160.928 E24.91752
G1 X117.867 Y161.209 E24.94307
G1 X117.125 Y161.415 E24.96868
G1 X116.367 Y161.543 E24.99425
G1 X115.518 Y161.592 E25.02254
G1 X112.518 Y161.592 E25.12232
G1 X111.750 Y161.552 E25.14790
G1 X110.990 Y161.433 E25.17348
G1 X110.247 Y161.235 E25.19906
G1 X109.528 Y160.961 E25.22465
G1 X109.274 Y160.832 E25.23412
G1 X88.028 Y160.835 E25.94077
G1 X87.786 Y161.033 E25.95117
G1 X87.144 Y161.456 E25.97674
G1 X86.461 Y161.811 E26.00234
G1 X85.746 Y162.092 E26.02789
G1 X85.004 Y162.298 E26.05350
G1 X84.246 Y162.426 E26.07907
G1 X83.397 Y162.475 E26.10736
G1 X80.753 Y162.475 E26.19530
G1 X80.540 Y162.534 E26.20265
G1 X79.782 Y162.662 E26.22822
G1 X78.933 Y162.711 E26.25650
G1 X78.197 Y162.711 E26.28098
G1 X77.429 Y162.671 E26.30656
G1 X76.669 Y162.552 E26.33214
G1 X75.926 Y162.354 E26.35772
G1 X75.207 Y162.080 E26.38331
G1 X74.521 Y161.733 E26.40888
G1 X73.874 Y161.317 E26.43446
G1 X73.274 Y160.836 E26.46004
G1 X72.727 Y160.295 E26.48563
G1 X72.533 Y160.058 E26.49582
G1 X71.936 Y159.733 E26.51842
G1 X71.302 Y159.297 E26.54402
G1 X70.718 Y158.797 E26.56959
G1 X70.188 Y158.239 E26.59518
G1 X69.719 Y157.630 E26.62075
G1 X69.316 Y156.975 E26.64633
G1 X68.983 Y156.281 E26.67193
G1 X68.724 Y155.557 E26.69750
G1 X68.581 Y154.975 E26.71744
G1 X66.250 Y154.975 E26.79497
G1 X66.037 Y155.034 E26.80232
G1 X65.279 Y155.162 E26.82789
G1 X64.430 Y155.211 E26.85617
G1 X58.065 Y155.211 E27.06787
G1 X57.297 Y155.171 E27.09345
G1 X56.537 Y155.052 E27.11904
G1 X55.794 Y154.854 E27.14461
G1 X55.075 Y154.580 E27.17020
G1 X54.389 Y154.233 E27.19577
G1 X53.742 Y153.817 E27.22136
G1 X53.142 Y153.336 E27.24693
G1 X52.595 Y152.795 E27.27252
G1 X52.107 Y152.200 E27.29812
G1 X51.684 Y151.558 E27.32369
G1 X51.329 Y150.875 E27.34929
G1 X51.048 Y150.160 E27.37484
G1 X50.842 Y149.418 E27.40045
G1 X50.714 Y148.660 E27.42602
G1 X50.665 Y147.811 E27.45431
G1 X50.665 Y146.804 E27.48780
G1 X50.437 Y146.224 E27.50853
G1 X50.231 Y145.482 E27.53414
G1 X50.103 Y144.724 E27.55971
G1 X50.054 Y143.875 E27.58799
G1 X50.054 Y140.875 E27.68777
G1 X50.094 Y140.107 E27.71335
G1 X50.213 Y139.347 E27.73894
G1 X50.411 Y138.604 E27.76451
G1 X50.685 Y137.885 E27.79010
G1 X50.804 Y137.650 E27.79886
G1 X50.803 Y137.187 E27.81426
G1 X50.818 Y136.706 E27.83027
G1 X50.833 Y136.470 E27.83813
G1 X50.922 Y135.706 E27.86372
G1 X51.089 Y134.955 E27.88931
G1 X51.333 Y134.226 E27.91487
G1 X51.652 Y133.526 E27.94046
G1 X52.042 Y132.863 E27.96604
G1 X52.499 Y132.244 E27.99163
G1 X53.017 Y131.675 E28.01723
G1 X53.591 Y131.164 E28.04279
G1 X54.216 Y130.715 E28.06838
G1 X54.883 Y130.333 E28.09395
G1 X55.587 Y130.022 E28.11955
G1 X56.037 Y129.878 E28.13526
G1 X55.948 Y129.854 E28.13833
G1 X55.229 Y129.580 E28.16392
G1 X54.543 Y129.233 E28.18949
G1 X53.896 Y128.817 E28.21507
G1 X53.296 Y128.336 E28.24065
G1 X52.749 Y127.795 E28.26624
G1 X52.261 Y127.200 E28.29183
G1 X51.838 Y126.558 E28.31740
G1 X51.483 Y125.875 E28.34301
G1 X51.202 Y125.160 E28.36856
G1 X50.996 Y124.418 E28.39417
G1 X50.868 Y123.660 E28.41974
G1 X50.819 Y122.822 E28.44766
G1 X50.818 Y122.131 E28.47064
G1 X50.718 Y121.939 E28.47784
G1 X50.437 Y121.224 E28.50339
G1 X50.231 Y120.482 E28.52900
G1 X50.103 Y119.724 E28.55457
G1 X50.054 Y118.875 E28.58286
G1 X50.054 Y115.875 E28.68264
G1 X50.094 Y115.107 E28.70822
G1 X50.213 Y114.347 E28.73380
G1 X50.411 Y113.604 E28.75938
G1 X50.664 Y112.939 E28.78304
G1 X50.664 Y111.941 E28.81623
G1 X50.704 Y111.173 E28.84181
G1 X50.823 Y110.413 E28.86740
G1 X51.021 Y109.670 E28.89297
G1 X51.294 Y108.951 E28.91855
G1 X51.641 Y108.264 E28.94415
G1 X52.057 Y107.617 E28.96974
G1 X52.538 Y107.017 E28.99531
